;Generated with Cura_SteamEngine 15.05
; Default start code
G28 ; Home extruder
G1 Z15 F100
M107 ; Turn off fan
G90 ; Absolute positioning
M82 ; Extruder in absolute mode
M190 S70
; Activate all used extruder
M104 T0 S250
G92 E0 ; Reset extruder position
; Wait for all used extruders to reach temperature
M109 T0 S210
;Layer count: 34
;LAYER:0
M107
G0 F9000 X88.400 Y99.400 Z0.500
;TYPE:SKIRT
G1 F1800 X111.600 Y99.400 E1.92909
G1 X111.600 Y124.600 E4.02448
G1 X88.400 Y124.600 E5.95356
G1 X88.400 Y99.400 E8.04895
G0 F9000 X88.800 Y99.800
G1 F1800 X111.200 Y99.800 E9.91152
G1 X111.200 Y124.200 E11.94039
G1 X88.800 Y124.200 E13.80296
G1 X88.800 Y99.800 E15.83182
G1 F2400 E11.83182
G0 F9000 X92.600 Y103.600
;TYPE:WALL-INNER
G1 F2400 E15.83182
G1 F1800 X107.400 Y103.600 E17.06245
G1 X107.400 Y120.400 E18.45937
G1 X92.600 Y120.400 E19.69000
G1 X92.600 Y103.600 E21.08693
G0 F9000 X98.136 Y106.271
G1 F1800 X97.956 Y106.747 E21.12924
G1 X97.896 Y107.250 E21.17136
G1 X97.956 Y107.752 E21.21340
G1 X98.136 Y108.228 E21.25572
G1 X98.425 Y108.645 E21.29790
G1 X98.803 Y108.981 E21.33996
G1 X99.254 Y109.217 E21.38228
G1 X99.746 Y109.339 E21.42443
G1 X100.253 Y109.339 E21.46659
G1 X100.745 Y109.217 E21.50873
G1 X101.196 Y108.981 E21.55106
G1 X101.574 Y108.645 E21.59311
G1 X101.863 Y108.228 E21.63530
G1 X102.043 Y107.753 E21.67754
G1 X102.105 Y107.250 E21.71968
G1 X102.043 Y106.746 E21.76190
G1 X101.863 Y106.271 E21.80414
G1 X101.574 Y105.854 E21.84633
G1 X101.196 Y105.518 E21.88838
G1 X100.745 Y105.282 E21.93070
G1 X100.253 Y105.160 E21.97285
G1 X99.746 Y105.160 E22.01501
G1 X99.250 Y105.283 E22.05750
G1 X98.786 Y105.533 E22.10133
G1 X98.425 Y105.854 E22.14149
G1 X98.136 Y106.271 E22.18368
G0 F9000 X97.958 Y107.751
G0 X99.746 Y114.660
G1 F1800 X99.250 Y114.783 E22.22617
G1 X98.786 Y115.033 E22.27000
G1 X98.425 Y115.354 E22.31017
G1 X98.136 Y115.771 E22.35235
G1 X97.956 Y116.247 E22.39467
G1 X97.896 Y116.750 E22.43679
G1 X97.956 Y117.252 E22.47883
G1 X98.136 Y117.728 E22.52114
G1 X98.425 Y118.145 E22.56333
G1 X98.803 Y118.481 E22.60538
G1 X99.254 Y118.717 E22.64771
G1 X99.746 Y118.839 E22.68986
G1 X100.253 Y118.839 E22.73201
G1 X100.745 Y118.717 E22.77416
G1 X101.196 Y118.481 E22.81649
G1 X101.574 Y118.145 E22.85854
G1 X101.863 Y117.728 E22.90073
G1 X102.043 Y117.253 E22.94296
G1 X102.105 Y116.750 E22.98511
G1 X102.043 Y116.246 E23.02733
G1 X101.863 Y115.771 E23.06957
G1 X101.574 Y115.354 E23.11175
G1 X101.196 Y115.018 E23.15381
G1 X100.745 Y114.782 E23.19613
G1 X100.253 Y114.660 E23.23828
G1 X99.746 Y114.660 E23.28044
G0 F9000 X99.795 Y115.060
;TYPE:WALL-OUTER
G1 F1800 X99.395 Y115.159 E23.31470
G1 X99.017 Y115.363 E23.35042
G1 X98.726 Y115.621 E23.38275
G1 X98.493 Y115.958 E23.41682
G1 X98.347 Y116.343 E23.45106
G1 X98.299 Y116.750 E23.48514
G1 X98.347 Y117.156 E23.51913
G1 X98.493 Y117.541 E23.55337
G1 X98.726 Y117.878 E23.58743
G1 X99.032 Y118.150 E23.62148
G1 X99.397 Y118.340 E23.65569
G1 X99.795 Y118.439 E23.68980
G1 X100.204 Y118.439 E23.72380
G1 X100.602 Y118.340 E23.75791
G1 X100.967 Y118.150 E23.79212
G1 X101.273 Y117.878 E23.82616
G1 X101.506 Y117.541 E23.86023
G1 X101.652 Y117.156 E23.89447
G1 X101.702 Y116.750 E23.92848
G1 X101.652 Y116.343 E23.96258
G1 X101.506 Y115.958 E23.99682
G1 X101.273 Y115.621 E24.03088
G1 X100.967 Y115.349 E24.06493
G1 X100.602 Y115.159 E24.09914
G1 X100.204 Y115.060 E24.13325
G1 X99.795 Y115.060 E24.16725
G0 F9000 X99.795 Y114.760
G0 X99.723 Y109.230
G0 X99.795 Y108.939
G1 F1800 X100.204 Y108.939 E24.20126
G1 X100.602 Y108.840 E24.23536
G1 X100.967 Y108.650 E24.26958
G1 X101.273 Y108.378 E24.30362
G1 X101.506 Y108.041 E24.33769
G1 X101.652 Y107.656 E24.37193
G1 X101.702 Y107.250 E24.40594
G1 X101.652 Y106.843 E24.44004
G1 X101.506 Y106.458 E24.47428
G1 X101.273 Y106.121 E24.50834
G1 X100.967 Y105.849 E24.54239
G1 X100.602 Y105.659 E24.57660
G1 X100.204 Y105.560 E24.61070
G1 X99.795 Y105.560 E24.64471
G1 X99.395 Y105.659 E24.67898
G1 X99.017 Y105.863 E24.71469
G1 X98.726 Y106.121 E24.74703
G1 X98.493 Y106.458 E24.78110
G1 X98.347 Y106.843 E24.81533
G1 X98.299 Y107.250 E24.84941
G1 X98.347 Y107.656 E24.88340
G1 X98.493 Y108.041 E24.91764
G1 X98.726 Y108.378 E24.95171
G1 X99.032 Y108.650 E24.98575
G1 X99.397 Y108.840 E25.01997
G1 X99.795 Y108.939 E25.05407
G0 F9000 X99.723 Y109.230
G0 X98.427 Y108.643
G0 X92.500 Y103.410
G0 X92.200 Y103.200
G1 F1800 X107.800 Y103.200 E26.35122
G1 X107.800 Y120.800 E27.81466
G1 X92.200 Y120.800 E29.11181
G1 X92.200 Y103.200 E30.57525
G0 F9000 X92.739 Y103.770
;TYPE:SKIN
G1 F1800 X107.259 Y118.290 E32.28269
G0 F9000 X107.259 Y118.856
G1 F1800 X92.739 Y104.336 E33.99013
G0 F9000 X92.739 Y104.902
G1 F1800 X107.259 Y119.421 E35.69752
G0 F9000 X107.259 Y119.987
G1 F1800 X92.739 Y105.467 E37.40496
G0 F9000 X92.739 Y106.033
G1 F1800 X106.965 Y120.259 E39.07783
G0 F9000 X106.399 Y120.259
G1 F1800 X102.075 Y115.934 E39.58635
G0 F9000 X102.234 Y116.659
G1 F1800 X105.834 Y120.259 E40.00969
G0 F9000 X105.268 Y120.259
G1 F1800 X102.193 Y117.183 E40.37134
G0 F9000 X102.056 Y117.612
G1 F1800 X104.702 Y120.259 E40.68255
G0 F9000 X104.137 Y120.259
G1 F1800 X101.858 Y117.980 E40.95054
G0 F9000 X101.611 Y118.298
G1 F1800 X103.571 Y120.259 E41.18108
G0 F9000 X103.005 Y120.259
G1 F1800 X101.312 Y118.565 E41.38022
G0 F9000 X100.949 Y118.768
G1 F1800 X102.439 Y120.259 E41.55550
G0 F9000 X101.874 Y120.259
G1 F1800 X100.530 Y118.914 E41.71360
G0 F9000 X100.028 Y118.978
G1 F1800 X101.308 Y120.259 E41.86418
G0 F9000 X100.742 Y120.259
G1 F1800 X99.374 Y118.890 E42.02510
G0 F9000 X99.611 Y120.259
G1 F1800 X92.739 Y113.387 E42.83320
G0 F9000 X92.739 Y113.953
G1 F1800 X99.045 Y120.259 E43.57473
G0 F9000 X98.480 Y120.259
G1 F1800 X92.739 Y114.518 E44.24983
G0 F9000 X92.739 Y115.084
G1 F1800 X97.914 Y120.259 E44.85837
G0 F9000 X97.348 Y120.259
G1 F1800 X92.739 Y115.650 E45.40035
G0 F9000 X92.739 Y116.215
G1 F1800 X96.783 Y120.259 E45.87590
G0 F9000 X96.217 Y120.259
G1 F1800 X92.739 Y116.781 E46.28488
G0 F9000 X92.739 Y117.347
G1 F1800 X95.651 Y120.259 E46.62731
G0 F9000 X95.086 Y120.259
G1 F1800 X92.739 Y117.912 E46.90330
G0 F9000 X92.739 Y118.478
G1 F1800 X94.520 Y120.259 E47.11273
G0 F9000 X93.954 Y120.259
G1 F1800 X92.739 Y119.044 E47.25561
G0 F9000 X92.739 Y119.609
G1 F1800 X93.389 Y120.259 E47.33204
G0 F9000 X92.823 Y120.259
G1 F1800 X92.739 Y120.175 E47.34192
G0 F9000 X97.848 Y117.364
G1 F1800 X92.739 Y112.256 E47.94264
G0 F9000 X92.739 Y112.821
G1 F1800 X100.177 Y120.259 E48.81729
G0 F9000 X98.137 Y117.726
G0 X97.761 Y116.711
G1 F1800 X92.739 Y111.690 E49.40778
G0 F9000 X92.739 Y111.124
G1 F1800 X97.821 Y116.205 E50.00533
G0 F9000 X97.977 Y115.796
G1 F1800 X92.739 Y110.558 E50.62128
G0 F9000 X92.739 Y109.993
G1 F1800 X98.191 Y115.445 E51.26239
G0 F9000 X98.452 Y115.140
G1 F1800 X92.739 Y109.427 E51.93420
G0 F9000 X92.739 Y108.861
G1 F1800 X98.763 Y114.885 E52.64257
G0 F9000 X99.130 Y114.687
G1 F1800 X92.739 Y108.296 E53.39410
G0 F9000 X92.739 Y107.730
G1 F1800 X99.567 Y114.558 E54.19702
G0 F9000 X100.094 Y114.519
G1 F1800 X92.739 Y107.164 E55.06192
G0 F9000 X92.739 Y106.599
G1 F1800 X100.788 Y114.647 E56.00836
G0 F9000 X100.144 Y109.478
G1 F1800 X107.259 Y116.593 E56.84503
G0 F9000 X107.259 Y117.159
G1 F1800 X99.528 Y109.428 E57.75413
G0 F9000 X98.427 Y108.643
G0 X97.810 Y107.710
G1 F1800 X93.840 Y103.739 E58.22103
G0 F9000 X94.405 Y103.739
G1 F1800 X97.773 Y107.106 E58.61703
G0 F9000 X97.852 Y106.621
G1 F1800 X94.971 Y103.739 E58.95587
G0 F9000 X95.537 Y103.739
G1 F1800 X98.009 Y106.211 E59.24656
G0 F9000 X98.239 Y105.875
G1 F1800 X96.102 Y103.739 E59.49779
G0 F9000 X96.668 Y103.739
G1 F1800 X98.514 Y105.585 E59.71487
G0 F9000 X98.838 Y105.344
G1 F1800 X97.234 Y103.739 E59.90355
G0 F9000 X97.799 Y103.739
G1 F1800 X99.207 Y105.147 E60.06912
G0 F9000 X99.661 Y105.035
G1 F1800 X98.365 Y103.739 E60.22152
G0 F9000 X98.931 Y103.739
G1 F1800 X100.211 Y105.019 E60.37203
G0 F9000 X101.028 Y105.271
G1 F1800 X99.496 Y103.739 E60.55218
G0 F9000 X93.274 Y103.739
G1 F1800 X107.259 Y117.724 E62.19671
G0 F9000 X107.259 Y116.027
G1 F1800 X100.623 Y109.391 E62.97706
G0 F9000 X101.025 Y109.228
G1 F1800 X107.259 Y115.462 E63.71013
G0 F9000 X107.259 Y114.896
G1 F1800 X101.373 Y109.010 E64.40228
G0 F9000 X101.672 Y108.743
G1 F1800 X107.259 Y114.330 E65.05926
G0 F9000 X107.259 Y113.764
G1 F1800 X101.905 Y108.410 E65.68885
G0 F9000 X102.087 Y108.027
G1 F1800 X107.259 Y113.199 E66.29704
G0 F9000 X107.259 Y112.633
G1 F1800 X102.205 Y107.579 E66.89135
G0 F9000 X102.218 Y107.026
G1 F1800 X107.259 Y112.067 E67.48414
G0 F9000 X107.259 Y111.502
G1 F1800 X102.003 Y106.246 E68.10220
G0 F9000 X101.759 Y103.739
G1 F1800 X107.259 Y109.239 E68.74896
G0 F9000 X107.259 Y109.805
G1 F1800 X101.194 Y103.739 E69.46221
G0 F9000 X100.628 Y103.739
G1 F1800 X107.259 Y110.370 E70.24197
G0 F9000 X107.259 Y110.936
G1 F1800 X100.062 Y103.739 E71.08828
G0 F9000 X102.325 Y103.739
G1 F1800 X107.259 Y108.673 E71.66848
G0 F9000 X107.259 Y108.108
G1 F1800 X102.891 Y103.739 E72.18218
G0 F9000 X103.456 Y103.739
G1 F1800 X107.259 Y107.542 E72.62939
G0 F9000 X107.259 Y106.976
G1 F1800 X104.022 Y103.739 E73.01003
G0 F9000 X104.588 Y103.739
G1 F1800 X107.259 Y106.411 E73.32418
G0 F9000 X107.259 Y105.845
G1 F1800 X105.153 Y103.739 E73.57183
G0 F9000 X105.719 Y103.739
G1 F1800 X107.259 Y105.279 E73.75292
G0 F9000 X107.259 Y104.714
G1 F1800 X106.285 Y103.739 E73.86752
G0 F9000 X106.850 Y103.739
G1 F1800 X107.259 Y104.148 E73.91561
;LAYER:1
M106 S127
G0 F9000 X107.400 Y103.600 Z0.700
;TYPE:WALL-INNER
G1 F2160 X107.400 Y120.400 E74.47438
G1 X92.600 Y120.400 E74.96663
G1 X92.600 Y103.600 E75.52540
G1 X107.400 Y103.600 E76.01765
G0 F9000 X101.863 Y106.271
G1 F2160 X101.574 Y105.854 E76.03453
G1 X101.196 Y105.518 E76.05135
G1 X100.745 Y105.282 E76.06828
G1 X100.253 Y105.160 E76.08514
G1 X99.746 Y105.160 E76.10200
G1 X99.254 Y105.282 E76.11886
G1 X98.803 Y105.518 E76.13579
G1 X98.425 Y105.854 E76.15261
G1 X98.136 Y106.271 E76.16949
G1 X97.956 Y106.747 E76.18641
G1 X97.896 Y107.250 E76.20326
G1 X97.956 Y107.752 E76.22008
G1 X98.136 Y108.228 E76.23700
G1 X98.425 Y108.645 E76.25388
G1 X98.803 Y108.981 E76.27070
G1 X99.254 Y109.217 E76.28763
G1 X99.746 Y109.339 E76.30449
G1 X100.253 Y109.339 E76.32135
G1 X100.745 Y109.217 E76.33821
G1 X101.196 Y108.981 E76.35514
G1 X101.574 Y108.645 E76.37196
G1 X101.863 Y108.228 E76.38884
G1 X102.043 Y107.753 E76.40573
G1 X102.105 Y107.250 E76.42259
G1 X102.043 Y106.746 E76.43948
G1 X101.863 Y106.271 E76.45637
G0 F9000 X102.041 Y107.751
G0 X100.253 Y114.660
G1 F2160 X99.746 Y114.660 E76.47324
G1 X99.254 Y114.782 E76.49009
G1 X98.803 Y115.018 E76.50702
G1 X98.425 Y115.354 E76.52385
G1 X98.136 Y115.771 E76.54072
G1 X97.956 Y116.247 E76.55765
G1 X97.896 Y116.750 E76.57450
G1 X97.956 Y117.252 E76.59131
G1 X98.136 Y117.728 E76.60824
G1 X98.425 Y118.145 E76.62511
G1 X98.803 Y118.481 E76.64193
G1 X99.254 Y118.717 E76.65886
G1 X99.746 Y118.839 E76.67572
G1 X100.253 Y118.839 E76.69258
G1 X100.745 Y118.717 E76.70944
G1 X101.196 Y118.481 E76.72637
G1 X101.574 Y118.145 E76.74320
G1 X101.863 Y117.728 E76.76007
G1 X102.043 Y117.253 E76.77697
G1 X102.105 Y116.750 E76.79382
G1 X102.043 Y116.246 E76.81071
G1 X101.863 Y115.771 E76.82761
G1 X101.574 Y115.354 E76.84448
G1 X101.196 Y115.018 E76.86130
G1 X100.745 Y114.782 E76.87823
G1 X100.253 Y114.660 E76.89509
G0 F9000 X100.204 Y115.060
;TYPE:WALL-OUTER
G1 F1980 X99.795 Y115.060 E76.90869
G1 X99.397 Y115.159 E76.92234
G1 X99.032 Y115.349 E76.93602
G1 X98.726 Y115.621 E76.94964
G1 X98.493 Y115.958 E76.96327
G1 X98.347 Y116.343 E76.97696
G1 X98.299 Y116.750 E76.99059
G1 X98.347 Y117.156 E77.00419
G1 X98.493 Y117.541 E77.01788
G1 X98.726 Y117.878 E77.03151
G1 X99.032 Y118.150 E77.04513
G1 X99.397 Y118.340 E77.05881
G1 X99.795 Y118.439 E77.07246
G1 X100.204 Y118.439 E77.08606
G1 X100.602 Y118.340 E77.09970
G1 X100.967 Y118.150 E77.11339
G1 X101.273 Y117.878 E77.12700
G1 X101.506 Y117.541 E77.14063
G1 X101.652 Y117.156 E77.15433
G1 X101.702 Y116.750 E77.16793
G1 X101.652 Y116.343 E77.18157
G1 X101.506 Y115.958 E77.19526
G1 X101.273 Y115.621 E77.20889
G1 X100.967 Y115.349 E77.22251
G1 X100.602 Y115.159 E77.23619
G1 X100.204 Y115.060 E77.24984
G0 F9000 X100.276 Y114.769
G0 X100.204 Y109.239
G0 X100.204 Y108.939
G1 F1980 X100.602 Y108.840 E77.26348
G1 X100.967 Y108.650 E77.27716
G1 X101.273 Y108.378 E77.29078
G1 X101.506 Y108.041 E77.30441
G1 X101.652 Y107.656 E77.31810
G1 X101.702 Y107.250 E77.33171
G1 X101.652 Y106.843 E77.34535
G1 X101.506 Y106.458 E77.35904
G1 X101.273 Y106.121 E77.37267
G1 X100.967 Y105.849 E77.38629
G1 X100.602 Y105.659 E77.39997
G1 X100.204 Y105.560 E77.41361
G1 X99.795 Y105.560 E77.42722
G1 X99.397 Y105.659 E77.44086
G1 X99.032 Y105.849 E77.45454
G1 X98.726 Y106.121 E77.46816
G1 X98.493 Y106.458 E77.48179
G1 X98.347 Y106.843 E77.49548
G1 X98.299 Y107.250 E77.50911
G1 X98.347 Y107.656 E77.52271
G1 X98.493 Y108.041 E77.53641
G1 X98.726 Y108.378 E77.55003
G1 X99.032 Y108.650 E77.56365
G1 X99.397 Y108.840 E77.57734
G1 X99.795 Y108.939 E77.59098
G1 X100.204 Y108.939 E77.60458
G0 F9000 X100.204 Y109.239
G0 X101.572 Y108.643
G0 X107.500 Y103.410
G0 X107.800 Y103.200
G1 F1980 X107.800 Y120.800 E78.18996
G1 X92.200 Y120.800 E78.70882
G1 X92.200 Y103.200 E79.29419
G1 X107.800 Y103.200 E79.81305
G0 F9000 X106.978 Y103.739
;TYPE:SKIN
G1 F1980 X92.739 Y117.977 E80.48279
G0 F9000 X92.739 Y117.412
G1 F1980 X100.815 Y109.337 E80.86263
G0 F9000 X100.108 Y109.477
G1 F1980 X92.739 Y116.846 E81.20925
G0 F9000 X92.739 Y116.280
G1 F1980 X99.580 Y109.440 E81.53101
G0 F9000 X99.141 Y109.313
G1 F1980 X92.739 Y115.715 E81.83214
G0 F9000 X92.739 Y115.149
G1 F1980 X98.768 Y109.120 E82.11572
G0 F9000 X98.460 Y108.863
G1 F1980 X92.739 Y114.583 E82.38480
G0 F9000 X92.739 Y114.018
G1 F1980 X98.196 Y108.561 E82.64148
G0 F9000 X97.980 Y108.212
G1 F1980 X92.739 Y113.452 E82.88797
G0 F9000 X92.739 Y112.886
G1 F1980 X97.823 Y107.802 E83.12711
G0 F9000 X97.761 Y107.299
G1 F1980 X92.739 Y112.321 E83.36333
G0 F9000 X92.739 Y111.755
G1 F1980 X97.839 Y106.655 E83.60322
G0 F9000 X99.392 Y105.102
G1 F1980 X100.755 Y103.739 E83.66733
G0 F9000 X101.321 Y103.739
G1 F1980 X100.041 Y105.019 E83.72754
G0 F9000 X100.539 Y105.086
G1 F1980 X101.887 Y103.739 E83.79092
G0 F9000 X102.452 Y103.739
G1 F1980 X100.957 Y105.235 E83.86126
G0 F9000 X101.319 Y105.438
G1 F1980 X103.018 Y103.739 E83.94118
G0 F9000 X103.584 Y103.739
G1 F1980 X101.618 Y105.705 E84.03365
G0 F9000 X101.864 Y106.025
G1 F1980 X104.149 Y103.739 E84.14116
G0 F9000 X104.715 Y103.739
G1 F1980 X102.060 Y106.394 E84.26604
G0 F9000 X102.194 Y106.826
G1 F1980 X105.281 Y103.739 E84.41124
G0 F9000 X105.846 Y103.739
G1 F1980 X102.233 Y107.352 E84.58119
G0 F9000 X102.066 Y108.085
G1 F1980 X106.412 Y103.739 E84.78561
G0 F9000 X107.259 Y104.023
G1 F1980 X92.739 Y118.543 E85.46859
G0 F9000 X92.739 Y119.109
G1 F1980 X107.259 Y104.589 E86.15156
G0 F9000 X107.259 Y105.155
G1 F1980 X92.739 Y119.674 E86.83451
G0 F9000 X93.852 Y120.259
G1 F1980 X97.807 Y116.304 E87.02055
G0 F9000 X97.773 Y116.903
G1 F1980 X94.418 Y120.259 E87.17838
G0 F9000 X94.984 Y120.259
G1 F1980 X97.856 Y117.386 E87.31349
G0 F9000 X98.012 Y117.796
G1 F1980 X95.549 Y120.259 E87.42934
G0 F9000 X96.115 Y120.259
G1 F1980 X98.244 Y118.129 E87.52951
G0 F9000 X98.522 Y118.417
G1 F1980 X96.681 Y120.259 E87.61613
G0 F9000 X97.246 Y120.259
G1 F1980 X98.845 Y118.660 E87.69134
G0 F9000 X99.219 Y118.851
G1 F1980 X97.812 Y120.259 E87.75754
G0 F9000 X98.378 Y120.259
G1 F1980 X99.673 Y118.964 E87.81846
G0 F9000 X98.137 Y117.726
G0 X97.958 Y116.248
G0 X98.805 Y115.019
G0 X99.547 Y114.564
G1 F1980 X107.259 Y106.852 E88.18121
G0 F9000 X107.259 Y107.418
G1 F1980 X100.158 Y114.519 E88.51521
G0 F9000 X100.633 Y114.609
G1 F1980 X107.259 Y107.983 E88.82688
G0 F9000 X107.259 Y108.549
G1 F1980 X101.034 Y114.774 E89.11969
G0 F9000 X101.380 Y114.993
G1 F1980 X107.259 Y109.115 E89.39619
G0 F9000 X107.259 Y109.680
G1 F1980 X101.679 Y115.261 E89.65868
G0 F9000 X101.911 Y115.594
G1 F1980 X107.259 Y110.246 E89.91024
G0 F9000 X107.259 Y110.812
G1 F1980 X102.092 Y115.978 E90.15325
G0 F9000 X102.208 Y116.429
