;Generated with Cura_SteamEngine 15.05
; Default start code
G28 ; Home extruder
G1 Z15 F100
M107 ; Turn off fan
G90 ; Absolute positioning
M82 ; Extruder in absolute mode
M190 S50
; Activate all used extruder
M104 T0 S210
G92 E0 ; Reset extruder position
; Wait for all used extruders to reach temperature
M109 T0 S210
;Layer count: 35
;LAYER:0
M107
G0 F9000 X88.400 Y87.400 Z0.300
;TYPE:SKIRT
G1 F1800 X111.600 Y87.400 E1.15745
G1 X111.600 Y112.600 E2.41469
G1 X88.400 Y112.600 E3.57214
G1 X88.400 Y87.400 E4.82937
G0 F9000 X88.800 Y87.800
G1 F1800 X111.200 Y87.800 E5.94691
G1 X111.200 Y112.200 E7.16423
G1 X88.800 Y112.200 E8.28177
G1 X88.800 Y87.800 E9.49909
G1 F2400 E5.49909
G0 F9000 X92.600 Y91.600
;TYPE:WALL-INNER
G1 F2400 E9.49909
G1 F1800 X107.400 Y91.600 E10.23747
G1 X107.400 Y108.400 E11.07562
G1 X92.600 Y108.400 E11.81400
G1 X92.600 Y91.600 E12.65216
G0 F9000 X98.132 Y94.282
G1 F1800 X97.956 Y94.747 E12.67696
G1 X97.896 Y95.250 E12.70223
G1 X97.956 Y95.752 E12.72746
G1 X98.136 Y96.228 E12.75285
G1 X98.425 Y96.645 E12.77816
G1 X98.803 Y96.981 E12.80339
G1 X99.254 Y97.217 E12.82878
G1 X99.746 Y97.339 E12.85407
G1 X100.255 Y97.339 E12.87947
G1 X100.756 Y97.212 E12.90525
G1 X101.196 Y96.981 E12.93005
G1 X101.574 Y96.645 E12.95528
G1 X101.863 Y96.228 E12.98059
G1 X102.043 Y95.753 E13.00593
G1 X102.105 Y95.250 E13.03122
G1 X102.043 Y94.746 E13.05655
G1 X101.863 Y94.271 E13.08189
G1 X101.574 Y93.854 E13.10721
G1 X101.196 Y93.518 E13.13244
G1 X100.745 Y93.282 E13.15783
G1 X100.253 Y93.160 E13.18312
G1 X99.746 Y93.160 E13.20842
G1 X99.254 Y93.282 E13.23371
G1 X98.803 Y93.518 E13.25910
G1 X98.423 Y93.856 E13.28447
G1 X98.132 Y94.282 E13.31021
G0 F9000 X97.958 Y95.751
G0 X99.746 Y102.660
G1 F1800 X99.254 Y102.782 E13.33550
G1 X98.803 Y103.018 E13.36090
G1 X98.423 Y103.356 E13.38627
G1 X98.132 Y103.782 E13.41201
G1 X97.956 Y104.247 E13.43681
G1 X97.896 Y104.750 E13.46208
G1 X97.956 Y105.252 E13.48731
G1 X98.136 Y105.728 E13.51270
G1 X98.425 Y106.145 E13.53801
G1 X98.803 Y106.481 E13.56324
G1 X99.254 Y106.717 E13.58864
G1 X99.746 Y106.839 E13.61393
G1 X100.255 Y106.839 E13.63932
G1 X100.756 Y106.712 E13.66510
G1 X101.196 Y106.481 E13.68990
G1 X101.574 Y106.145 E13.71513
G1 X101.863 Y105.728 E13.74044
G1 X102.043 Y105.253 E13.76578
G1 X102.105 Y104.750 E13.79107
G1 X102.043 Y104.246 E13.81640
G1 X101.863 Y103.771 E13.84175
G1 X101.574 Y103.354 E13.86706
G1 X101.196 Y103.018 E13.89229
G1 X100.745 Y102.782 E13.91768
G1 X100.253 Y102.660 E13.94297
G1 X99.746 Y102.660 E13.96827
G0 F9000 X99.795 Y103.060
;TYPE:WALL-OUTER
G1 F1800 X99.397 Y103.159 E13.98873
G1 X99.032 Y103.349 E14.00926
G1 X98.726 Y103.622 E14.02972
G1 X98.489 Y103.968 E14.05064
G1 X98.347 Y104.343 E14.07065
G1 X98.299 Y104.750 E14.09109
G1 X98.347 Y105.156 E14.11149
G1 X98.493 Y105.541 E14.13203
G1 X98.726 Y105.878 E14.15247
G1 X99.032 Y106.150 E14.17290
G1 X99.397 Y106.340 E14.19343
G1 X99.795 Y106.439 E14.21389
G1 X100.205 Y106.439 E14.23434
G1 X100.612 Y106.336 E14.25529
G1 X100.967 Y106.150 E14.27528
G1 X101.273 Y105.878 E14.29571
G1 X101.506 Y105.541 E14.31615
G1 X101.652 Y105.156 E14.33669
G1 X101.702 Y104.750 E14.35710
G1 X101.652 Y104.343 E14.37756
G1 X101.506 Y103.958 E14.39810
G1 X101.273 Y103.621 E14.41854
G1 X100.967 Y103.349 E14.43897
G1 X100.602 Y103.159 E14.45950
G1 X100.204 Y103.060 E14.47996
G1 X99.795 Y103.060 E14.50036
G0 F9000 X99.795 Y102.760
G0 X99.723 Y97.230
G0 X99.795 Y96.939
G1 F1800 X100.205 Y96.939 E14.52082
G1 X100.612 Y96.836 E14.54176
G1 X100.967 Y96.650 E14.56176
G1 X101.273 Y96.378 E14.58218
G1 X101.506 Y96.041 E14.60262
G1 X101.652 Y95.656 E14.62317
G1 X101.702 Y95.250 E14.64357
G1 X101.652 Y94.843 E14.66403
G1 X101.506 Y94.458 E14.68457
G1 X101.273 Y94.121 E14.70501
G1 X100.967 Y93.849 E14.72544
G1 X100.602 Y93.659 E14.74597
G1 X100.204 Y93.560 E14.76643
G1 X99.795 Y93.560 E14.78684
G1 X99.397 Y93.659 E14.80730
G1 X99.032 Y93.849 E14.82783
G1 X98.726 Y94.122 E14.84829
G1 X98.489 Y94.468 E14.86921
G1 X98.347 Y94.843 E14.88921
G1 X98.299 Y95.250 E14.90966
G1 X98.347 Y95.656 E14.93006
G1 X98.493 Y96.041 E14.95060
G1 X98.726 Y96.378 E14.97104
G1 X99.032 Y96.650 E14.99147
G1 X99.397 Y96.840 E15.01199
G1 X99.795 Y96.939 E15.03246
G0 F9000 X99.723 Y97.230
G0 X98.427 Y96.643
G0 X92.500 Y91.410
G0 X92.200 Y91.200
G1 F1800 X107.800 Y91.200 E15.81074
G1 X107.800 Y108.800 E16.68881
G1 X92.200 Y108.800 E17.46710
G1 X92.200 Y91.200 E18.34517
G0 F9000 X92.739 Y91.891
;TYPE:SKIN
G1 F1800 X107.259 Y106.411 E19.36963
G0 F9000 X107.259 Y106.976
G1 F1800 X92.739 Y92.457 E20.39406
G0 F9000 X92.739 Y93.022
G1 F1800 X107.259 Y107.542 E21.41852
G0 F9000 X107.259 Y108.108
G1 F1800 X92.739 Y93.588 E22.44299
G0 F9000 X92.739 Y94.154
G1 F1800 X106.845 Y108.259 E23.43821
G0 F9000 X106.279 Y108.259
G1 F1800 X102.148 Y104.128 E23.72967
G0 F9000 X102.241 Y104.786
G1 F1800 X105.713 Y108.259 E23.97468
G0 F9000 X105.148 Y108.259
G1 F1800 X102.178 Y105.289 E24.18422
G0 F9000 X102.022 Y105.699
G1 F1800 X104.582 Y108.259 E24.36485
G0 F9000 X104.016 Y108.259
G1 F1800 X101.808 Y106.051 E24.52063
G0 F9000 X101.547 Y106.355
G1 F1800 X103.451 Y108.259 E24.65497
G0 F9000 X102.885 Y108.259
G1 F1800 X101.242 Y106.616 E24.77089
G0 F9000 X100.870 Y106.809
G1 F1800 X102.319 Y108.259 E24.87316
G0 F9000 X101.754 Y108.259
G1 F1800 X100.432 Y106.937 E24.96644
G0 F9000 X99.907 Y106.978
G1 F1800 X101.188 Y108.259 E25.05682
G0 F9000 X100.622 Y108.259
G1 F1800 X99.214 Y106.851 E25.15616
G0 F9000 X99.491 Y108.259
G1 F1800 X92.739 Y101.508 E25.63252
G0 F9000 X92.739 Y102.073
G1 F1800 X98.925 Y108.259 E26.06897
G0 F9000 X98.359 Y108.259
G1 F1800 X92.739 Y102.639 E26.46549
G0 F9000 X92.739 Y103.205
G1 F1800 X97.794 Y108.259 E26.82212
G0 F9000 X97.228 Y108.259
G1 F1800 X92.739 Y103.770 E27.13884
G0 F9000 X92.739 Y104.336
G1 F1800 X96.662 Y108.259 E27.41563
G0 F9000 X96.097 Y108.259
G1 F1800 X92.739 Y104.902 E27.65252
G0 F9000 X92.739 Y105.467
G1 F1800 X95.531 Y108.259 E27.84951
G0 F9000 X94.965 Y108.259
G1 F1800 X92.739 Y106.033 E28.00656
G0 F9000 X92.739 Y106.599
G1 F1800 X94.400 Y108.259 E28.12372
G0 F9000 X93.834 Y108.259
G1 F1800 X92.739 Y107.164 E28.20098
G0 F9000 X92.739 Y107.730
G1 F1800 X93.268 Y108.259 E28.23830
G0 F9000 X97.922 Y105.559
G1 F1800 X92.739 Y100.376 E28.60399
G0 F9000 X92.739 Y100.942
G1 F1800 X100.057 Y108.259 E29.12028
G0 F9000 X102.041 Y105.251
G0 X101.862 Y103.773
G0 X100.627 Y102.607
G1 F1800 X92.739 Y94.719 E29.67682
G0 F9000 X92.739 Y95.285
G1 F1800 X99.973 Y102.519 E30.18722
G0 F9000 X99.471 Y102.582
G1 F1800 X92.739 Y95.851 E30.66216
G0 F9000 X92.739 Y96.416
G1 F1800 X99.051 Y102.728 E31.10751
G0 F9000 X98.688 Y102.930
G1 F1800 X92.739 Y96.982 E31.52721
G0 F9000 X92.739 Y97.548
G1 F1800 X98.388 Y103.197 E31.92578
G0 F9000 X98.143 Y103.517
G1 F1800 X92.739 Y98.113 E32.30706
G0 F9000 X92.739 Y98.679
G1 F1800 X97.943 Y103.883 E32.67423
G0 F9000 X97.807 Y104.313
G1 F1800 X92.739 Y99.245 E33.03180
G0 F9000 X92.739 Y99.810
G1 F1800 X97.766 Y104.837 E33.38648
G0 F9000 X99.370 Y97.390
G1 F1800 X107.259 Y105.279 E33.94310
G0 F9000 X107.259 Y104.714
G1 F1800 X100.024 Y97.478 E34.45360
G0 F9000 X100.526 Y97.415
G1 F1800 X107.259 Y104.148 E34.92865
G0 F9000 X107.259 Y103.582
G1 F1800 X100.947 Y97.270 E35.37399
G0 F9000 X101.310 Y97.067
G1 F1800 X107.259 Y103.016 E35.79373
G0 F9000 X107.259 Y102.451
G1 F1800 X101.609 Y96.800 E36.19240
G0 F9000 X101.855 Y96.481
G1 F1800 X107.259 Y101.885 E36.57368
G0 F9000 X107.259 Y101.319
G1 F1800 X102.054 Y96.114 E36.94092
G0 F9000 X102.191 Y95.686
G1 F1800 X107.259 Y100.754 E37.29850
G0 F9000 X107.259 Y100.188
G1 F1800 X102.234 Y95.163 E37.65304
G0 F9000 X102.075 Y94.439
G1 F1800 X107.259 Y99.622 E38.01876
G0 F9000 X107.259 Y99.057
G1 F1800 X99.942 Y91.740 E38.53502
G0 F9000 X99.376 Y91.740
G1 F1800 X100.783 Y93.147 E38.63429
G0 F9000 X100.090 Y93.019
G1 F1800 X98.811 Y91.740 E38.72453
G0 F9000 X98.245 Y91.740
G1 F1800 X99.564 Y93.059 E38.81759
G0 F9000 X99.128 Y93.188
G1 F1800 X97.679 Y91.740 E38.91979
G0 F9000 X97.114 Y91.740
G1 F1800 X98.756 Y93.382 E39.03564
G0 F9000 X98.451 Y93.642
G1 F1800 X96.548 Y91.740 E39.16987
G0 F9000 X95.982 Y91.740
G1 F1800 X98.190 Y93.948 E39.32566
G0 F9000 X97.974 Y94.297
G1 F1800 X95.416 Y91.740 E39.50611
G0 F9000 X94.851 Y91.740
G1 F1800 X97.819 Y94.708 E39.71551
G0 F9000 X97.759 Y95.214
G1 F1800 X94.285 Y91.740 E39.96062
G0 F9000 X93.719 Y91.740
G1 F1800 X97.850 Y95.870 E40.25205
G0 F9000 X93.154 Y91.740
G1 F1800 X107.259 Y105.845 E41.24724
G0 F9000 X107.259 Y98.491
G1 F1800 X100.508 Y91.740 E41.72356
G0 F9000 X101.073 Y91.740
G1 F1800 X107.259 Y97.925 E42.15998
G0 F9000 X107.259 Y97.360
G1 F1800 X101.639 Y91.740 E42.55650
G0 F9000 X102.205 Y91.740
G1 F1800 X107.259 Y96.794 E42.91309
G0 F9000 X107.259 Y96.228
G1 F1800 X102.770 Y91.740 E43.22977
G0 F9000 X103.336 Y91.740
G1 F1800 X107.259 Y95.663 E43.50656
G0 F9000 X107.259 Y95.097
G1 F1800 X103.902 Y91.740 E43.74342
G0 F9000 X104.467 Y91.740
G1 F1800 X107.259 Y94.531 E43.94037
G0 F9000 X107.259 Y93.966
G1 F1800 X105.033 Y91.740 E44.09743
G0 F9000 X105.599 Y91.740
G1 F1800 X107.259 Y93.400 E44.21455
G0 F9000 X107.259 Y92.834
G1 F1800 X106.165 Y91.740 E44.29174
G0 F9000 X106.730 Y91.740
G1 F1800 X107.259 Y92.268 E44.32903
;LAYER:1
M106 S63
G0 F9000 X107.400 Y91.600 Z0.500
;TYPE:WALL-INNER
G1 F2220 X107.400 Y108.400 E44.88780
G1 X92.600 Y108.400 E45.38005
G1 X92.600 Y91.600 E45.93882
G1 X107.400 Y91.600 E46.43107
G0 F9000 X101.863 Y94.271
G1 F2220 X101.574 Y93.854 E46.44794
G1 X101.196 Y93.518 E46.46476
G1 X100.745 Y93.282 E46.48169
G1 X100.253 Y93.160 E46.49855
G1 X99.746 Y93.160 E46.51542
G1 X99.250 Y93.283 E46.53241
G1 X98.786 Y93.533 E46.54994
G1 X98.425 Y93.854 E46.56601
G1 X98.136 Y94.271 E46.58288
G1 X97.956 Y94.747 E46.59981
G1 X97.896 Y95.250 E46.61666
G1 X97.956 Y95.752 E46.63347
G1 X98.136 Y96.228 E46.65040
G1 X98.425 Y96.645 E46.66727
G1 X98.803 Y96.981 E46.68410
G1 X99.254 Y97.217 E46.70103
G1 X99.746 Y97.339 E46.71789
G1 X100.253 Y97.339 E46.73475
G1 X100.745 Y97.217 E46.75161
G1 X101.196 Y96.981 E46.76854
G1 X101.574 Y96.645 E46.78536
G1 X101.863 Y96.228 E46.80223
G1 X102.043 Y95.753 E46.81913
G1 X102.105 Y95.250 E46.83599
G1 X102.043 Y94.746 E46.85287
G1 X101.863 Y94.271 E46.86977
G0 F9000 X102.041 Y95.751
G0 X100.253 Y102.660
G1 F2220 X99.746 Y102.660 E46.88663
G1 X99.250 Y102.783 E46.90363
G1 X98.786 Y103.033 E46.92116
G1 X98.425 Y103.354 E46.93723
G1 X98.136 Y103.771 E46.95410
G1 X97.956 Y104.247 E46.97103
G1 X97.896 Y104.750 E46.98788
G1 X97.956 Y105.252 E47.00469
G1 X98.136 Y105.728 E47.02162
G1 X98.425 Y106.145 E47.03849
G1 X98.803 Y106.481 E47.05531
G1 X99.254 Y106.717 E47.07224
G1 X99.746 Y106.839 E47.08910
G1 X100.253 Y106.839 E47.10597
G1 X100.745 Y106.717 E47.12283
G1 X101.196 Y106.481 E47.13976
G1 X101.574 Y106.145 E47.15658
G1 X101.863 Y105.728 E47.17345
G1 X102.043 Y105.253 E47.19035
G1 X102.105 Y104.750 E47.20720
G1 X102.043 Y104.246 E47.22409
G1 X101.863 Y103.771 E47.24099
G1 X101.574 Y103.354 E47.25786
G1 X101.196 Y103.018 E47.27468
G1 X100.745 Y102.782 E47.29161
G1 X100.253 Y102.660 E47.30847
G0 F9000 X100.204 Y103.060
;TYPE:WALL-OUTER
G1 F1980 X99.795 Y103.060 E47.32208
G1 X99.395 Y103.159 E47.33578
G1 X99.017 Y103.363 E47.35007
G1 X98.726 Y103.621 E47.36300
G1 X98.493 Y103.958 E47.37663
G1 X98.347 Y104.343 E47.39032
G1 X98.299 Y104.750 E47.40395
G1 X98.347 Y105.156 E47.41755
G1 X98.493 Y105.541 E47.43125
G1 X98.726 Y105.878 E47.44487
G1 X99.032 Y106.150 E47.45849
G1 X99.397 Y106.340 E47.47218
G1 X99.795 Y106.439 E47.48582
G1 X100.204 Y106.439 E47.49942
G1 X100.602 Y106.340 E47.51306
G1 X100.967 Y106.150 E47.52675
G1 X101.273 Y105.878 E47.54037
G1 X101.506 Y105.541 E47.55399
G1 X101.652 Y105.156 E47.56769
G1 X101.702 Y104.750 E47.58129
G1 X101.652 Y104.343 E47.59493
G1 X101.506 Y103.958 E47.60863
G1 X101.273 Y103.621 E47.62225
G1 X100.967 Y103.349 E47.63587
G1 X100.602 Y103.159 E47.64956
G1 X100.204 Y103.060 E47.66320
G0 F9000 X100.276 Y102.769
G0 X100.204 Y97.239
G0 X100.204 Y96.939
G1 F1980 X100.602 Y96.840 E47.67684
G1 X100.967 Y96.650 E47.69053
G1 X101.273 Y96.378 E47.70414
G1 X101.506 Y96.041 E47.71777
G1 X101.652 Y95.656 E47.73146
G1 X101.702 Y95.250 E47.74507
G1 X101.652 Y94.843 E47.75871
G1 X101.506 Y94.458 E47.77240
G1 X101.273 Y94.121 E47.78603
G1 X100.967 Y93.849 E47.79965
G1 X100.602 Y93.659 E47.81333
G1 X100.204 Y93.560 E47.82698
G1 X99.795 Y93.560 E47.84058
G1 X99.395 Y93.659 E47.85428
G1 X99.017 Y93.863 E47.86857
G1 X98.726 Y94.121 E47.88151
G1 X98.493 Y94.458 E47.89513
G1 X98.347 Y94.843 E47.90883
G1 X98.299 Y95.250 E47.92246
G1 X98.347 Y95.656 E47.93606
G1 X98.493 Y96.041 E47.94975
G1 X98.726 Y96.378 E47.96338
G1 X99.032 Y96.650 E47.97699
G1 X99.397 Y96.840 E47.99068
G1 X99.795 Y96.939 E48.00432
G1 X100.204 Y96.939 E48.01793
G0 F9000 X100.204 Y97.239
G0 X101.572 Y96.643
G0 X107.500 Y91.410
G0 X107.800 Y91.200
G1 F1980 X107.800 Y108.800 E48.60330
G1 X92.200 Y108.800 E49.12216
G1 X92.200 Y91.200 E49.70754
G1 X107.800 Y91.200 E50.22640
G0 F9000 X107.098 Y91.740
;TYPE:SKIN
G1 F1980 X92.739 Y106.098 E50.90178
G0 F9000 X92.739 Y106.664
G1 F1980 X107.259 Y92.144 E51.58475
G0 F9000 X107.259 Y92.710
G1 F1980 X92.739 Y107.229 E52.26771
G0 F9000 X92.739 Y107.795
G1 F1980 X107.259 Y93.275 E52.95068
G0 F9000 X107.259 Y93.841
G1 F1980 X92.841 Y108.259 E53.62886
G0 F9000 X93.407 Y108.259
G1 F1980 X98.120 Y103.546 E53.85055
G0 F9000 X97.791 Y104.441
G1 F1980 X93.973 Y108.259 E54.03013
G0 F9000 X94.538 Y108.259
G1 F1980 X97.786 Y105.011 E54.18291
G0 F9000 X97.889 Y105.474
G1 F1980 X95.104 Y108.259 E54.31391
G0 F9000 X95.670 Y108.259
G1 F1980 X98.062 Y105.867 E54.42642
G0 F9000 X98.293 Y106.201
G1 F1980 X96.235 Y108.259 E54.52322
G0 F9000 X96.801 Y108.259
G1 F1980 X98.586 Y106.474 E54.60718
G0 F9000 X98.924 Y106.701
G1 F1980 X97.367 Y108.259 E54.68044
G0 F9000 X97.932 Y108.259
G1 F1980 X99.316 Y106.875 E54.74554
G0 F9000 X99.779 Y106.978
G1 F1980 X98.498 Y108.259 E54.80580
G0 F9000 X99.064 Y108.259
G1 F1980 X100.370 Y106.952 E54.86725
G0 F9000 X101.420 Y106.469
G1 F1980 X99.629 Y108.259 E54.95147
G0 F9000 X97.958 Y105.251
G0 X98.137 Y103.773
G0 X98.801 Y102.864
G1 F1980 X107.259 Y94.407 E55.34928
G0 F9000 X107.259 Y94.972
G1 F1980 X99.708 Y102.524 E55.70448
G0 F9000 X99.675 Y97.465
G1 F1980 X92.739 Y104.401 E56.03073
G0 F9000 X92.739 Y104.967
G1 F1980 X100.228 Y97.478 E56.38299
G0 F9000 X101.065 Y97.207
G1 F1980 X92.739 Y105.532 E56.77460
G0 F9000 X92.739 Y103.835
G1 F1980 X99.222 Y97.353 E57.07951
G0 F9000 X98.847 Y97.162
G1 F1980 X92.739 Y103.270 E57.36682
G0 F9000 X92.739 Y102.704
G1 F1980 X98.524 Y96.920 E57.63890
G0 F9000 X98.244 Y96.633
G1 F1980 X92.739 Y102.138 E57.89784
G0 F9000 X92.739 Y101.573
G1 F1980 X98.014 Y96.298 E58.14596
G0 F9000 X97.857 Y95.890
G1 F1980 X92.739 Y101.007 E58.38667
G0 F9000 X92.739 Y100.441
G1 F1980 X97.773 Y95.407 E58.62346
G0 F9000 X97.806 Y94.809
G1 F1980 X92.739 Y99.876 E58.86179
G0 F9000 X92.739 Y99.310
G1 F1980 X100.310 Y91.740 E59.21788
G0 F9000 X100.875 Y91.740
G1 F1980 X99.552 Y93.063 E59.28011
G0 F9000 X99.744 Y91.740
G1 F1980 X92.739 Y98.744 E59.60958
G0 F9000 X92.739 Y98.178
G1 F1980 X99.178 Y91.740 E59.91243
G0 F9000 X98.613 Y91.740
G1 F1980 X92.739 Y97.613 E60.18870
G0 F9000 X92.739 Y97.047
G1 F1980 X98.047 Y91.740 E60.43835
G0 F9000 X97.481 Y91.740
G1 F1980 X92.739 Y96.481 E60.66138
G0 F9000 X92.739 Y95.916
G1 F1980 X96.916 Y91.740 E60.85783
G0 F9000 X96.350 Y91.740
G1 F1980 X92.739 Y95.350 E61.02765
G0 F9000 X92.739 Y94.784
G1 F1980 X95.784 Y91.740 E61.17086
G0 F9000 X95.218 Y91.740
G1 F1980 X92.739 Y94.219 E61.28746
G0 F9000 X92.739 Y93.653
G1 F1980 X94.653 Y91.740 E61.37747
G0 F9000 X94.087 Y91.740
G1 F1980 X92.739 Y93.087 E61.44085
G0 F9000 X92.739 Y92.522
G1 F1980 X93.521 Y91.740 E61.47763
G0 F9000 X92.956 Y91.740
G1 F1980 X92.739 Y91.956 E61.48782
G0 F9000 X100.161 Y93.019
G1 F1980 X101.441 Y91.740 E61.54800
G0 F9000 X102.007 Y91.740
G1 F1980 X100.636 Y93.111 E61.61249
G0 F9000 X101.036 Y93.276
G1 F1980 X102.572 Y91.740 E61.68474
G0 F9000 X103.138 Y91.740
G1 F1980 X101.382 Y93.496 E61.76733
G0 F9000 X101.681 Y93.763
