;Generated with Cura_SteamEngine 15.05
; Default start code
G28 ; Home extruder
G1 Z15 F100
M107 ; Turn off fan
G90 ; Absolute positioning
M82 ; Extruder in absolute mode
M190 S50
; Activate all used extruder
M104 T0 S210
G92 E0 ; Reset extruder position
; Wait for all used extruders to reach temperature
M109 T0 S210
;Layer count: 55
;LAYER:0
M107
G0 F9000 X77.300 Y66.300 Z0.300
;TYPE:SKIRT
G1 F1800 X82.300 Y66.300 E0.24945
G1 X82.300 Y60.300 E0.54879
G1 X117.700 Y60.300 E2.31491
G1 X117.700 Y66.300 E2.61425
G1 X122.700 Y66.300 E2.86370
G1 X122.700 Y82.700 E3.68190
G1 X117.700 Y82.700 E3.93135
G1 X117.700 Y84.925 E4.04235
G1 X130.700 Y94.924 E4.86058
G1 X130.700 Y139.700 E7.09447
G1 X69.300 Y139.700 E10.15773
G1 X69.300 Y94.924 E12.39161
G1 X82.300 Y84.925 E13.20984
G1 X82.300 Y82.700 E13.32084
G1 X77.300 Y82.700 E13.57030
G1 X77.300 Y66.300 E14.38850
G1 F2400 E10.38850
G0 F9000 X81.100 Y70.100
;TYPE:WALL-INNER
G1 F2400 E14.38850
G1 F1800 X86.100 Y70.100 E14.63795
G1 X86.100 Y64.100 E14.93729
G1 X113.900 Y64.100 E16.32423
G1 X113.900 Y70.100 E16.62358
G1 X118.900 Y70.100 E16.87303
G1 X118.900 Y78.900 E17.31206
G1 X113.900 Y78.900 E17.56151
G1 X113.900 Y86.795 E17.95540
G1 X126.900 Y96.796 E18.77369
G1 X126.900 Y135.900 E20.72459
G1 X73.100 Y135.900 E23.40869
G1 X73.100 Y96.796 E25.35959
G1 X86.100 Y86.795 E26.17788
G1 X86.100 Y78.900 E26.57177
G1 X81.100 Y78.900 E26.82122
G1 X81.100 Y70.100 E27.26025
G0 F9000 X83.425 Y73.104
G1 F1800 X83.136 Y73.521 E27.28556
G1 X82.956 Y73.997 E27.31095
G1 X82.895 Y74.502 E27.33633
G1 X82.961 Y75.020 E27.36238
G1 X83.146 Y75.494 E27.38777
G1 X83.439 Y75.908 E27.41307
G1 X83.820 Y76.241 E27.43832
G1 X84.269 Y76.471 E27.46348
G1 X84.742 Y76.588 E27.48779
G1 X85.250 Y76.590 E27.51314
G1 X85.743 Y76.468 E27.53848
G1 X86.199 Y76.230 E27.56414
G1 X86.578 Y75.889 E27.58957
G1 X86.863 Y75.477 E27.61457
G1 X87.043 Y75.002 E27.63991
G1 X87.104 Y74.491 E27.66558
G1 X87.043 Y73.994 E27.69056
G1 X86.863 Y73.519 E27.71591
G1 X86.572 Y73.101 E27.74132
G1 X86.179 Y72.759 E27.76731
G1 X85.743 Y72.531 E27.79186
G1 X85.252 Y72.410 E27.81708
G1 X84.814 Y72.409 E27.83894
G1 X84.725 Y72.415 E27.84339
G1 X84.253 Y72.532 E27.86765
G1 X83.803 Y72.768 E27.89300
G1 X83.425 Y73.104 E27.91823
G0 F9000 X82.897 Y74.501
G0 X83.685 Y78.899
G0 X86.041 Y78.959
G0 X86.079 Y86.785
G0 X84.743 Y102.410
G1 F1800 X84.239 Y102.539 E27.94419
G1 X83.803 Y102.768 E27.96876
G1 X83.425 Y103.104 E27.99399
G1 X83.136 Y103.521 E28.01930
G1 X82.956 Y103.997 E28.04469
G1 X82.895 Y104.503 E28.07012
G1 X82.962 Y105.017 E28.09598
G1 X83.136 Y105.478 E28.12056
G1 X83.425 Y105.895 E28.14587
G1 X83.803 Y106.231 E28.17110
G1 X84.254 Y106.467 E28.19650
G1 X84.746 Y106.589 E28.22179
G1 X85.253 Y106.589 E28.24708
G1 X85.748 Y106.466 E28.27253
G1 X86.207 Y106.221 E28.29849
G1 X86.574 Y105.895 E28.32298
G1 X86.863 Y105.478 E28.34829
G1 X87.043 Y105.003 E28.37363
G1 X87.105 Y104.497 E28.39906
G1 X87.036 Y103.978 E28.42518
G1 X86.853 Y103.505 E28.45049
G1 X86.562 Y103.094 E28.47561
G1 X86.195 Y102.768 E28.50010
G1 X85.745 Y102.532 E28.52545
G1 X85.253 Y102.410 E28.55074
G1 X84.743 Y102.410 E28.57619
G0 F9000 X112.895 Y104.503
G1 F1800 X112.962 Y105.017 E28.60205
G1 X113.136 Y105.478 E28.62663
G1 X113.425 Y105.895 E28.65194
G1 X113.803 Y106.231 E28.67717
G1 X114.254 Y106.467 E28.70257
G1 X114.746 Y106.589 E28.72786
G1 X115.253 Y106.589 E28.75315
G1 X115.748 Y106.466 E28.77860
G1 X116.207 Y106.221 E28.80456
G1 X116.574 Y105.895 E28.82905
G1 X116.863 Y105.478 E28.85436
G1 X117.043 Y105.003 E28.87970
G1 X117.105 Y104.497 E28.90513
G1 X117.036 Y103.978 E28.93125
G1 X116.853 Y103.505 E28.95656
G1 X116.562 Y103.094 E28.98168
G1 X116.195 Y102.768 E29.00617
G1 X115.745 Y102.532 E29.03152
G1 X115.253 Y102.410 E29.05681
G1 X114.743 Y102.410 E29.08226
G1 X114.239 Y102.539 E29.10821
G1 X113.803 Y102.768 E29.13278
G1 X113.425 Y103.104 E29.15801
G1 X113.136 Y103.521 E29.18332
G1 X112.956 Y103.997 E29.20871
G1 X112.895 Y104.503 E29.23414
G0 F9000 X113.959 Y78.959
G0 X114.747 Y76.589
G1 F1800 X115.185 Y76.590 E29.25599
G1 X115.274 Y76.584 E29.26044
G1 X115.746 Y76.467 E29.28470
G1 X116.196 Y76.231 E29.31005
G1 X116.574 Y75.895 E29.33529
G1 X116.863 Y75.478 E29.36060
G1 X117.043 Y75.003 E29.38594
G1 X117.105 Y74.498 E29.41132
G1 X117.038 Y73.979 E29.43743
G1 X116.853 Y73.505 E29.46282
G1 X116.560 Y73.091 E29.48812
G1 X116.179 Y72.758 E29.51337
G1 X115.730 Y72.528 E29.53854
G1 X115.257 Y72.411 E29.56284
G1 X114.749 Y72.409 E29.58819
G1 X114.256 Y72.531 E29.61353
G1 X113.804 Y72.767 E29.63897
G1 X113.426 Y73.102 E29.66416
G1 X113.133 Y73.527 E29.68992
G1 X112.956 Y74.003 E29.71526
G1 X112.896 Y74.504 E29.74043
G1 X112.956 Y75.005 E29.76560
G1 X113.137 Y75.481 E29.79101
G1 X113.426 Y75.896 E29.81624
G1 X113.805 Y76.233 E29.84154
G1 X114.257 Y76.468 E29.86696
G1 X114.747 Y76.589 E29.89214
G0 F9000 X115.172 Y76.190
;TYPE:WALL-OUTER
G1 F1800 X115.212 Y76.187 E29.89414
G1 X115.603 Y76.090 E29.91424
G1 X115.967 Y75.900 E29.93472
G1 X116.273 Y75.628 E29.95515
G1 X116.506 Y75.291 E29.97559
G1 X116.652 Y74.906 E29.99613
G1 X116.702 Y74.499 E30.01659
G1 X116.647 Y74.078 E30.03777
G1 X116.498 Y73.696 E30.05823
G1 X116.261 Y73.361 E30.07870
G1 X115.953 Y73.092 E30.09910
G1 X115.589 Y72.905 E30.11952
G1 X115.207 Y72.811 E30.13915
G1 X114.797 Y72.809 E30.15960
G1 X114.399 Y72.908 E30.18006
G1 X114.033 Y73.099 E30.20066
G1 X113.728 Y73.369 E30.22098
G1 X113.490 Y73.714 E30.24189
G1 X113.347 Y74.098 E30.26233
G1 X113.299 Y74.504 E30.28273
G1 X113.347 Y74.908 E30.30303
G1 X113.494 Y75.293 E30.32359
G1 X113.727 Y75.629 E30.34399
G1 X114.034 Y75.901 E30.36445
G1 X114.399 Y76.091 E30.38498
G1 X114.796 Y76.189 E30.40538
G1 X115.172 Y76.190 E30.42414
G0 F9000 X115.169 Y76.489
G0 X114.300 Y79.000
G0 X114.300 Y79.300
G1 F1800 X114.300 Y86.598 E30.78824
G1 X127.300 Y96.599 E31.60653
G1 X127.300 Y136.300 E33.58722
G1 X72.700 Y136.300 E36.31123
G1 X72.700 Y96.599 E38.29192
G1 X85.700 Y86.598 E39.11021
G1 X85.700 Y79.300 E39.47431
G1 X80.700 Y79.300 E39.72376
G1 X80.700 Y69.700 E40.20270
G1 X85.700 Y69.700 E40.45215
G1 X85.700 Y63.700 E40.75149
G1 X114.300 Y63.700 E42.17835
G1 X114.300 Y69.700 E42.47770
G1 X119.300 Y69.700 E42.72715
G1 X119.300 Y79.300 E43.20609
G1 X114.300 Y79.300 E43.45554
G0 F9000 X114.300 Y79.000
G0 X113.959 Y78.959
G0 X113.921 Y86.785
G0 X114.794 Y102.510
G0 X114.794 Y102.810
G1 F1800 X114.384 Y102.915 E43.47666
G1 X114.032 Y103.099 E43.49647
G1 X113.726 Y103.371 E43.51690
G1 X113.493 Y103.708 E43.53734
G1 X113.347 Y104.093 E43.55788
G1 X113.298 Y104.501 E43.57838
G1 X113.353 Y104.920 E43.59947
G1 X113.493 Y105.291 E43.61925
G1 X113.726 Y105.628 E43.63969
G1 X114.032 Y105.900 E43.66012
G1 X114.397 Y106.090 E43.68065
G1 X114.795 Y106.189 E43.70111
G1 X115.204 Y106.189 E43.72151
G1 X115.603 Y106.090 E43.74202
G1 X115.977 Y105.890 E43.76318
G1 X116.273 Y105.628 E43.78290
G1 X116.506 Y105.291 E43.80334
G1 X116.652 Y104.906 E43.82389
G1 X116.702 Y104.499 E43.84434
G1 X116.646 Y104.078 E43.86553
G1 X116.498 Y103.696 E43.88597
G1 X116.262 Y103.362 E43.90637
G1 X115.966 Y103.099 E43.92613
G1 X115.602 Y102.909 E43.94661
G1 X115.204 Y102.810 E43.96708
G1 X114.794 Y102.810 E43.98753
G0 F9000 X114.794 Y102.510
G0 X86.998 Y104.535
G0 X86.702 Y104.499
G1 F1800 X86.646 Y104.078 E44.00872
G1 X86.498 Y103.696 E44.02916
G1 X86.262 Y103.362 E44.04956
G1 X85.966 Y103.099 E44.06932
G1 X85.602 Y102.909 E44.08980
G1 X85.204 Y102.810 E44.11026
G1 X84.794 Y102.810 E44.13072
G1 X84.384 Y102.915 E44.15183
G1 X84.032 Y103.099 E44.17165
G1 X83.726 Y103.371 E44.19207
G1 X83.493 Y103.708 E44.21251
G1 X83.347 Y104.093 E44.23306
G1 X83.298 Y104.501 E44.25356
G1 X83.353 Y104.920 E44.27464
G1 X83.493 Y105.291 E44.29442
G1 X83.726 Y105.628 E44.31487
G1 X84.032 Y105.900 E44.33529
G1 X84.397 Y106.090 E44.35582
G1 X84.795 Y106.189 E44.37628
G1 X85.204 Y106.189 E44.39669
G1 X85.603 Y106.090 E44.41720
G1 X85.977 Y105.890 E44.43836
G1 X86.273 Y105.628 E44.45808
G1 X86.506 Y105.291 E44.47852
G1 X86.652 Y104.906 E44.49906
G1 X86.702 Y104.499 E44.51952
G0 F9000 X86.998 Y104.535
G0 X86.041 Y78.959
G0 X85.201 Y76.489
G0 X85.202 Y76.190
G1 F1800 X85.600 Y76.091 E44.53998
G1 X85.969 Y75.899 E44.56073
G1 X86.276 Y75.623 E44.58133
G1 X86.506 Y75.290 E44.60152
G1 X86.652 Y74.906 E44.62201
G1 X86.701 Y74.492 E44.64281
G1 X86.652 Y74.091 E44.66297
G1 X86.506 Y73.707 E44.68346
G1 X86.272 Y73.370 E44.70393
G1 X85.952 Y73.092 E44.72508
G1 X85.600 Y72.908 E44.74490
G1 X85.203 Y72.810 E44.76530
G1 X84.827 Y72.809 E44.78406
G1 X84.787 Y72.812 E44.78606
G1 X84.396 Y72.909 E44.80616
G1 X84.032 Y73.099 E44.82664
G1 X83.726 Y73.371 E44.84707
G1 X83.493 Y73.708 E44.86751
G1 X83.347 Y74.093 E44.88805
G1 X83.298 Y74.501 E44.90855
G1 X83.352 Y74.921 E44.92968
G1 X83.501 Y75.303 E44.95013
G1 X83.738 Y75.638 E44.97061
G1 X84.046 Y75.907 E44.99101
G1 X84.410 Y76.094 E45.01142
G1 X84.792 Y76.188 E45.03105
G1 X85.202 Y76.190 E45.05151
G0 F9000 X85.452 Y76.684
;TYPE:SKIN
G1 F1800 X112.808 Y104.040 E46.98162
G0 F9000 X112.949 Y103.615
G1 F1800 X85.885 Y76.551 E48.89113
G0 F9000 X86.257 Y76.357
G1 F1800 X113.151 Y103.252 E50.78868
G0 F9000 X113.401 Y102.936
G1 F1800 X86.559 Y76.093 E52.68257
G0 F9000 X86.817 Y75.786
G1 F1800 X113.700 Y102.669 E54.57931
G0 F9000 X114.066 Y102.470
G1 F1800 X87.028 Y75.432 E56.48698
G0 F9000 X87.181 Y75.019
G1 F1800 X114.491 Y102.328 E58.41382
G0 F9000 X114.997 Y102.269
G1 F1800 X87.240 Y74.512 E60.37222
G0 F9000 X87.134 Y73.841
G1 F1800 X115.660 Y102.366 E62.38485
G0 F9000 X117.129 Y103.835
G1 F1800 X126.759 Y113.465 E63.06430
G0 F9000 X126.759 Y112.900
G1 F1800 X84.099 Y70.240 E66.07419
G0 F9000 X83.534 Y70.240
G1 F1800 X85.659 Y72.366 E66.22416
G0 F9000 X84.997 Y72.269
G1 F1800 X82.968 Y70.240 E66.36732
G0 F9000 X82.402 Y70.240
G1 F1800 X84.490 Y72.328 E66.51464
G0 F9000 X84.067 Y72.470
G1 F1800 X81.837 Y70.240 E66.67197
G0 F9000 X81.271 Y70.240
G1 F1800 X83.700 Y72.670 E66.84339
G0 F9000 X83.401 Y72.936
G1 F1800 X81.239 Y70.774 E66.99593
G0 F9000 X81.239 Y71.340
G1 F1800 X83.152 Y73.252 E67.13087
G0 F9000 X82.949 Y73.616
G1 F1800 X81.239 Y71.905 E67.25155
G0 F9000 X81.239 Y72.471
G1 F1800 X82.809 Y74.041 E67.36232
G0 F9000 X82.761 Y74.558
G1 F1800 X81.239 Y73.037 E67.46967
G0 F9000 X81.239 Y73.602
G1 F1800 X82.908 Y75.272 E67.58747
G0 F9000 X81.239 Y75.299
G1 F1800 X84.699 Y78.759 E67.83159
G0 F9000 X84.133 Y78.759
G1 F1800 X81.239 Y75.865 E68.03578
G0 F9000 X81.239 Y76.431
G1 F1800 X83.568 Y78.759 E68.20006
G0 F9000 X83.002 Y78.759
G1 F1800 X81.239 Y76.996 E68.32445
G0 F9000 X81.239 Y77.562
G1 F1800 X82.436 Y78.759 E68.40891
G0 F9000 X81.870 Y78.759
G1 F1800 X81.239 Y78.128 E68.45343
G0 F9000 X81.239 Y78.693
G1 F1800 X81.305 Y78.759 E68.45808
G0 F9000 X84.249 Y76.612
G1 F1800 X112.907 Y105.270 E70.48006
G0 F9000 X112.759 Y104.557
G1 F1800 X84.931 Y76.728 E72.44351
G0 F9000 X85.265 Y78.759
G1 F1800 X81.239 Y74.734 E72.72753
G0 F9000 X81.239 Y74.168
G1 F1800 X85.830 Y78.759 E73.05145
G0 F9000 X86.239 Y79.168
G1 F1800 X126.760 Y119.689 E75.91043
G0 F9000 X126.760 Y119.123
G1 F1800 X114.246 Y106.609 E76.79336
G0 F9000 X114.931 Y106.728
G1 F1800 X126.760 Y118.557 E77.62796
G0 F9000 X126.760 Y117.992
G1 F1800 X115.452 Y106.684 E78.42580
G0 F9000 X115.885 Y106.551
G1 F1800 X126.760 Y117.426 E79.19309
G0 F9000 X126.760 Y116.860
G1 F1800 X116.254 Y106.354 E79.93434
G0 F9000 X116.560 Y106.095
G1 F1800 X126.759 Y116.294 E80.65394
G0 F9000 X126.759 Y115.728
G1 F1800 X116.818 Y105.787 E81.35533
G0 F9000 X117.028 Y105.431
G1 F1800 X126.759 Y115.162 E82.04190
G0 F9000 X126.759 Y114.597
G1 F1800 X117.181 Y105.018 E82.71772
G0 F9000 X117.243 Y104.515
G1 F1800 X126.759 Y114.031 E83.38912
G0 F9000 X126.759 Y112.334
G1 F1800 X84.665 Y70.240 E86.35908
G0 F9000 X85.231 Y70.240
G1 F1800 X126.759 Y111.768 E89.28911
G0 F9000 X126.759 Y111.203
G1 F1800 X85.796 Y70.240 E92.17927
G0 F9000 X86.239 Y70.117
G1 F1800 X126.759 Y110.637 E95.03817
G0 F9000 X126.759 Y110.071
G1 F1800 X86.239 Y69.551 E97.89708
G0 F9000 X86.239 Y68.986
G1 F1800 X126.759 Y109.506 E100.75598
G0 F9000 X126.759 Y108.940
G1 F1800 X86.239 Y68.420 E103.61489
G0 F9000 X86.239 Y67.854
G1 F1800 X126.759 Y108.374 E106.47379
G0 F9000 X126.759 Y107.809
G1 F1800 X86.239 Y67.288 E109.33273
G0 F9000 X86.239 Y66.723
G1 F1800 X126.759 Y107.243 E112.19164
G0 F9000 X126.759 Y106.677
G1 F1800 X86.239 Y66.157 E115.05054
G0 F9000 X86.239 Y65.591
G1 F1800 X126.759 Y106.111 E117.90945
G0 F9000 X126.759 Y105.546
G1 F1800 X86.239 Y65.026 E120.76835
G0 F9000 X86.239 Y64.460
G1 F1800 X126.759 Y104.980 E123.62726
G0 F9000 X126.759 Y104.414
G1 F1800 X86.585 Y64.240 E126.46175
G0 F9000 X87.150 Y64.240
G1 F1800 X126.759 Y103.849 E129.25638
G0 F9000 X126.759 Y103.283
G1 F1800 X87.716 Y64.240 E132.01107
G0 F9000 X88.282 Y64.240
G1 F1800 X126.759 Y102.717 E134.72583
G0 F9000 X126.759 Y102.152
G1 F1800 X88.847 Y64.240 E137.40073
G0 F9000 X89.413 Y64.240
G1 F1800 X126.759 Y101.586 E140.03569
G0 F9000 X126.759 Y101.020
G1 F1800 X89.979 Y64.240 E142.63072
G0 F9000 X90.545 Y64.240
G1 F1800 X126.759 Y100.455 E145.18585
G0 F9000 X126.759 Y99.889
G1 F1800 X91.110 Y64.240 E147.70108
G0 F9000 X91.676 Y64.240
G1 F1800 X113.759 Y86.323 E149.25915
G0 F9000 X113.759 Y85.757
G1 F1800 X92.242 Y64.240 E150.77729
G0 F9000 X92.807 Y64.240
G1 F1800 X113.759 Y85.192 E152.25557
G0 F9000 X113.759 Y84.626
G1 F1800 X93.373 Y64.240 E153.69391
G0 F9000 X93.939 Y64.240
G1 F1800 X113.759 Y84.060 E155.09232
G0 F9000 X113.759 Y83.495
G1 F1800 X94.504 Y64.240 E156.45086
G0 F9000 X95.070 Y64.240
G1 F1800 X113.759 Y82.929 E157.76947
G0 F9000 X113.759 Y82.363
G1 F1800 X95.636 Y64.240 E159.04815
G0 F9000 X96.201 Y64.240
G1 F1800 X113.759 Y81.798 E160.28696
G0 F9000 X113.759 Y81.232
G1 F1800 X96.767 Y64.240 E161.48584
G0 F9000 X97.333 Y64.240
G1 F1800 X113.759 Y80.666 E162.64478
G0 F9000 X113.759 Y80.101
G1 F1800 X97.898 Y64.240 E163.76386
G0 F9000 X98.464 Y64.240
G1 F1800 X113.759 Y79.535 E164.84301
G0 F9000 X113.759 Y78.969
G1 F1800 X99.030 Y64.240 E165.88222
G0 F9000 X99.595 Y64.240
G1 F1800 X114.115 Y78.759 E166.90665
G0 F9000 X114.680 Y78.759
G1 F1800 X100.161 Y64.240 E167.93104
G0 F9000 X100.727 Y64.240
G1 F1800 X115.246 Y78.759 E168.95543
G0 F9000 X115.812 Y78.759
G1 F1800 X101.293 Y64.240 E169.97983
G0 F9000 X101.858 Y64.240
G1 F1800 X112.917 Y75.299 E170.76010
G0 F9000 X112.764 Y74.580
G1 F1800 X102.424 Y64.240 E171.48964
G0 F9000 X102.990 Y64.240
G1 F1800 X112.808 Y74.059 E172.18239
G0 F9000 X112.945 Y73.630
G1 F1800 X103.555 Y64.240 E172.84491
G0 F9000 X104.121 Y64.240
G1 F1800 X113.144 Y73.263 E173.48153
G0 F9000 X113.390 Y72.944
G1 F1800 X104.687 Y64.240 E174.09561
G0 F9000 X105.252 Y64.240
G1 F1800 X113.691 Y72.679 E174.69102
G0 F9000 X114.055 Y72.477
G1 F1800 X105.818 Y64.240 E175.27219
G0 F9000 X106.384 Y64.240
G1 F1800 X114.474 Y72.331 E175.84302
G0 F9000 X114.978 Y72.269
G1 F1800 X106.949 Y64.240 E176.40951
G0 F9000 X107.515 Y64.240
G1 F1800 X115.633 Y72.358 E176.98228
G0 F9000 X115.778 Y70.240
G1 F1800 X118.759 Y73.221 E177.19260
G0 F9000 X118.759 Y73.787
G1 F1800 X115.212 Y70.240 E177.44286
G0 F9000 X114.646 Y70.240
G1 F1800 X118.759 Y74.352 E177.73302
G0 F9000 X118.759 Y74.918
G1 F1800 X114.081 Y70.240 E178.06308
G0 F9000 X113.759 Y69.918
G1 F1800 X108.081 Y64.240 E178.46369
G0 F9000 X108.646 Y64.240
G1 F1800 X113.759 Y69.353 E178.82444
G0 F9000 X113.759 Y68.787
G1 F1800 X109.212 Y64.240 E179.14526
G0 F9000 X109.778 Y64.240
G1 F1800 X113.759 Y68.221 E179.42614
G0 F9000 X113.759 Y67.655
G1 F1800 X110.344 Y64.240 E179.66708
G0 F9000 X110.909 Y64.240
G1 F1800 X113.759 Y67.090 E179.86817
G0 F9000 X113.759 Y66.524
G1 F1800 X111.475 Y64.240 E180.02932
G0 F9000 X112.041 Y64.240
G1 F1800 X113.759 Y65.958 E180.15053
G0 F9000 X113.759 Y65.393
G1 F1800 X112.606 Y64.240 E180.23188
G0 F9000 X113.172 Y64.240
G1 F1800 X113.759 Y64.827 E180.27330
G0 F9000 X113.959 Y70.041
G0 X116.343 Y70.240
G1 F1800 X118.759 Y72.655 E180.44372
G0 F9000 X118.759 Y72.090
G1 F1800 X116.909 Y70.240 E180.57425
G0 F9000 X117.475 Y70.240
G1 F1800 X118.759 Y71.524 E180.66484
G0 F9000 X118.759 Y70.958
