;Generated with Cura_SteamEngine 15.05
; Default start code
G28 ; Home extruder
G1 Z15 F100
M107 ; Turn off fan
G90 ; Absolute positioning
M82 ; Extruder in absolute mode
M190 S50
; Activate all used extruder
M104 T0 S210
G92 E0 ; Reset extruder position
; Wait for all used extruders to reach temperature
M109 T0 S210
;Layer count: 100
;LAYER:0
M107
G0 F9000 X83.900 Y100.200 Z0.300
;TYPE:SKIRT
G1 F1800 X99.800 Y121.400 E1.32209
G1 X99.800 Y100.200 E2.37976
G1 X83.900 Y100.200 E3.17302
G0 F9000 X99.800 Y90.400
G1 F1800 X99.800 Y68.800 E4.25065
G1 X109.600 Y68.800 E4.73957
G1 X126.200 Y90.933 E6.11985
G1 X126.200 Y100.200 E6.58218
G1 X109.900 Y100.200 E7.39539
G1 X126.200 Y121.933 E8.75073
G1 X126.200 Y131.200 E9.21306
G1 X73.800 Y131.200 E11.82731
G1 X73.800 Y68.800 E14.94046
G1 X83.600 Y68.800 E15.42938
G1 X99.800 Y90.400 E16.77642
G1 F2400 E12.77642
G0 F9000 X96.400 Y92.200
;TYPE:WALL-INNER
G1 F2400 E16.77642
G1 F1800 X96.400 Y96.400 E16.98596
G1 X77.600 Y96.400 E17.92389
G1 X77.600 Y72.600 E19.11128
G1 X81.700 Y72.600 E19.31583
G1 X96.400 Y92.200 E20.53814
G0 F9000 X96.800 Y92.067
;TYPE:WALL-OUTER
G1 F1800 X96.800 Y96.800 E20.77427
G1 X77.200 Y96.800 E21.75212
G1 X77.200 Y72.200 E22.97942
G1 X81.900 Y72.200 E23.21390
G1 X96.800 Y92.067 E24.45285
G0 F9000 X96.259 Y92.582
;TYPE:SKIN
G1 F1800 X77.739 Y74.062 E25.75954
G0 F9000 X77.739 Y74.628
G1 F1800 X96.259 Y93.148 E27.06623
G0 F9000 X96.259 Y93.714
G1 F1800 X77.739 Y75.193 E28.37295
G0 F9000 X77.739 Y75.759
G1 F1800 X96.259 Y94.279 E29.67963
G0 F9000 X96.259 Y94.845
G1 F1800 X77.739 Y76.325 E30.98632
G0 F9000 X77.739 Y76.890
G1 F1800 X96.259 Y95.411 E32.29304
G0 F9000 X96.259 Y95.977
G1 F1800 X77.739 Y77.456 E33.59976
G0 F9000 X77.739 Y78.022
G1 F1800 X95.976 Y96.259 E34.88648
G0 F9000 X95.410 Y96.259
G1 F1800 X77.739 Y78.587 E36.13330
G0 F9000 X77.739 Y79.153
G1 F1800 X94.844 Y96.259 E37.34019
G0 F9000 X94.279 Y96.259
G1 F1800 X77.739 Y79.719 E38.50717
G0 F9000 X77.739 Y73.496
G1 F1800 X95.568 Y91.325 E39.76511
G0 F9000 X93.871 Y89.062
G1 F1800 X77.739 Y72.930 E40.90330
G0 F9000 X78.114 Y72.740
G1 F1800 X92.174 Y86.800 E41.89531
G0 F9000 X90.477 Y84.538
G1 F1800 X78.679 Y72.740 E42.72773
G0 F9000 X79.245 Y72.740
G1 F1800 X88.781 Y82.276 E43.40054
G0 F9000 X87.085 Y80.014
G1 F1800 X79.811 Y72.740 E43.91376
G0 F9000 X80.376 Y72.740
G1 F1800 X85.388 Y77.751 E44.26735
G0 F9000 X83.691 Y75.489
G1 F1800 X80.942 Y72.740 E44.46131
G0 F9000 X81.508 Y72.740
G1 F1800 X81.994 Y73.226 E44.49560
G0 F9000 X77.739 Y80.284
G1 F1800 X93.713 Y96.259 E45.62269
G0 F9000 X93.147 Y96.259
G1 F1800 X77.739 Y80.850 E46.70984
G0 F9000 X77.739 Y81.416
G1 F1800 X92.582 Y96.259 E47.75709
G0 F9000 X92.016 Y96.259
G1 F1800 X77.739 Y81.981 E48.76445
G0 F9000 X77.739 Y82.547
G1 F1800 X91.450 Y96.259 E49.73187
G0 F9000 X90.885 Y96.259
G1 F1800 X77.739 Y83.113 E50.65939
G0 F9000 X77.739 Y83.679
G1 F1800 X90.319 Y96.259 E51.54698
G0 F9000 X89.753 Y96.259
G1 F1800 X77.739 Y84.244 E52.39466
G0 F9000 X77.739 Y84.810
G1 F1800 X89.188 Y96.259 E53.20245
G0 F9000 X88.622 Y96.259
G1 F1800 X77.739 Y85.376 E53.97031
G0 F9000 X77.739 Y85.941
G1 F1800 X88.056 Y96.259 E54.69826
G0 F9000 X87.491 Y96.259
G1 F1800 X77.739 Y86.507 E55.38632
G0 F9000 X77.739 Y87.073
G1 F1800 X86.925 Y96.259 E56.03444
G0 F9000 X86.359 Y96.259
G1 F1800 X77.739 Y87.638 E56.64266
G0 F9000 X77.739 Y88.204
G1 F1800 X85.793 Y96.259 E57.21095
G0 F9000 X85.228 Y96.259
G1 F1800 X77.739 Y88.770 E57.73934
G0 F9000 X77.739 Y89.335
G1 F1800 X84.662 Y96.259 E58.22783
G0 F9000 X84.096 Y96.259
G1 F1800 X77.739 Y89.901 E58.67639
G0 F9000 X77.739 Y90.467
G1 F1800 X83.531 Y96.259 E59.08504
G0 F9000 X82.965 Y96.259
G1 F1800 X77.739 Y91.032 E59.45380
G0 F9000 X77.739 Y91.598
G1 F1800 X82.399 Y96.259 E59.78263
G0 F9000 X81.834 Y96.259
G1 F1800 X77.739 Y92.164 E60.07155
G0 F9000 X77.739 Y92.729
G1 F1800 X81.268 Y96.259 E60.32057
G0 F9000 X80.702 Y96.259
G1 F1800 X77.739 Y93.295 E60.52967
G0 F9000 X77.739 Y93.861
G1 F1800 X80.137 Y96.259 E60.69886
G0 F9000 X79.571 Y96.259
G1 F1800 X77.739 Y94.427 E60.82812
G0 F9000 X77.739 Y94.992
G1 F1800 X79.005 Y96.259 E60.91747
G0 F9000 X78.440 Y96.259
G1 F1800 X77.739 Y95.558 E60.96693
G0 F9000 X77.739 Y96.124
G1 F1800 X77.874 Y96.259 E60.97646
G1 F2400 E56.97646
G0 F9000 X103.600 Y96.400
;TYPE:WALL-INNER
G1 F2400 E60.97646
G1 F1800 X103.600 Y72.600 E62.16384
G1 X107.700 Y72.600 E62.36839
G1 X122.400 Y92.200 E63.59070
G1 X122.400 Y96.400 E63.80024
G1 X103.600 Y96.400 E64.73818
G0 F9000 X103.200 Y96.800
;TYPE:WALL-OUTER
G1 F1800 X103.200 Y72.200 E65.96548
G1 X107.900 Y72.200 E66.19996
G1 X122.800 Y92.067 E67.43892
G1 X122.800 Y96.800 E67.67505
G1 X103.200 Y96.800 E68.65289
G0 F9000 X103.896 Y96.259
;TYPE:SKIN
G1 F1800 X103.739 Y96.102 E68.66397
G0 F9000 X103.739 Y95.537
G1 F1800 X104.462 Y96.259 E68.71495
G0 F9000 X105.027 Y96.259
G1 F1800 X103.739 Y94.971 E68.80582
G0 F9000 X103.739 Y94.405
G1 F1800 X105.593 Y96.259 E68.93663
G0 F9000 X106.159 Y96.259
G1 F1800 X103.739 Y93.840 E69.10734
G0 F9000 X103.739 Y93.274
G1 F1800 X106.725 Y96.259 E69.31798
G0 F9000 X107.290 Y96.259
G1 F1800 X103.739 Y92.708 E69.56853
G0 F9000 X103.739 Y92.143
G1 F1800 X107.856 Y96.259 E69.85897
G0 F9000 X108.422 Y96.259
G1 F1800 X103.739 Y91.577 E70.18934
G0 F9000 X103.739 Y91.011
G1 F1800 X108.987 Y96.259 E70.55962
G0 F9000 X109.553 Y96.259
G1 F1800 X103.739 Y90.446 E70.96979
G0 F9000 X103.739 Y89.880
G1 F1800 X110.119 Y96.259 E71.41990
G0 F9000 X110.684 Y96.259
G1 F1800 X103.739 Y89.314 E71.90991
G0 F9000 X103.739 Y88.748
G1 F1800 X111.250 Y96.259 E72.43985
G0 F9000 X111.816 Y96.259
G1 F1800 X103.739 Y88.183 E73.00969
G0 F9000 X103.739 Y87.617
G1 F1800 X112.381 Y96.259 E73.61943
G0 F9000 X112.947 Y96.259
G1 F1800 X103.739 Y87.051 E74.26910
G0 F9000 X103.739 Y86.486
G1 F1800 X113.513 Y96.259 E74.95868
G0 F9000 X114.078 Y96.259
G1 F1800 X103.739 Y85.920 E75.68815
G0 F9000 X103.739 Y85.354
G1 F1800 X114.644 Y96.259 E76.45756
G0 F9000 X115.210 Y96.259
G1 F1800 X103.739 Y84.789 E77.26686
G0 F9000 X103.739 Y84.223
G1 F1800 X115.776 Y96.259 E78.11610
G0 F9000 X116.341 Y96.259
G1 F1800 X103.739 Y83.657 E79.00524
G0 F9000 X103.739 Y83.092
G1 F1800 X116.907 Y96.259 E79.93428
G0 F9000 X117.473 Y96.259
G1 F1800 X103.739 Y82.526 E80.90325
G0 F9000 X103.739 Y81.960
G1 F1800 X118.038 Y96.259 E81.91212
G0 F9000 X118.604 Y96.259
G1 F1800 X103.739 Y81.395 E82.96089
G0 F9000 X103.739 Y80.829
G1 F1800 X119.170 Y96.259 E84.04960
G0 F9000 X119.735 Y96.259
G1 F1800 X103.739 Y80.263 E85.17820
G0 F9000 X103.739 Y72.909
G1 F1800 X119.807 Y88.977 E86.31189
G0 F9000 X118.110 Y86.714
G1 F1800 X104.135 Y72.740 E87.29786
G0 F9000 X104.701 Y72.740
G1 F1800 X116.412 Y84.451 E88.12414
G0 F9000 X114.715 Y82.188
G1 F1800 X105.266 Y72.740 E88.79078
G0 F9000 X105.832 Y72.740
G1 F1800 X113.018 Y79.925 E89.29776
G0 F9000 X111.320 Y77.662
G1 F1800 X106.398 Y72.740 E89.64503
G0 F9000 X106.964 Y72.740
G1 F1800 X109.623 Y75.399 E89.83264
G0 F9000 X107.926 Y73.136
G1 F1800 X107.529 Y72.740 E89.86061
G0 F9000 X103.739 Y73.475
G1 F1800 X121.504 Y91.240 E91.11403
G0 F9000 X122.259 Y92.560
G1 F1800 X103.739 Y74.041 E92.42068
G0 F9000 X103.739 Y74.606
G1 F1800 X122.259 Y93.126 E93.72737
G0 F9000 X122.259 Y93.692
G1 F1800 X103.739 Y75.172 E95.03405
G0 F9000 X103.739 Y75.738
G1 F1800 X122.259 Y94.258 E96.34074
G0 F9000 X122.259 Y94.823
G1 F1800 X103.739 Y76.303 E97.64742
G0 F9000 X103.739 Y76.869
G1 F1800 X122.259 Y95.389 E98.95411
G0 F9000 X122.259 Y95.955
G1 F1800 X103.739 Y77.435 E100.26080
G0 F9000 X103.739 Y78.000
G1 F1800 X121.998 Y96.259 E101.54907
G0 F9000 X121.432 Y96.259
G1 F1800 X103.739 Y78.566 E102.79740
G0 F9000 X103.739 Y79.132
G1 F1800 X120.867 Y96.259 E104.00584
G0 F9000 X120.301 Y96.259
G1 F1800 X103.739 Y79.698 E105.17434
G1 F2400 E101.17434
G0 F9000 X103.600 Y103.600
;TYPE:WALL-INNER
G1 F2400 E105.17434
G1 F1800 X107.700 Y103.600 E105.37889
G1 X122.400 Y123.200 E106.60120
G1 X122.400 Y127.400 E106.81074
G1 X103.600 Y127.400 E107.74868
G1 X103.600 Y103.600 E108.93607
G0 F9000 X103.200 Y103.200
;TYPE:WALL-OUTER
G1 F1800 X107.900 Y103.200 E109.17055
G1 X122.800 Y123.067 E110.40950
G1 X122.800 Y127.800 E110.64563
G1 X103.200 Y127.800 E111.62348
G1 X103.200 Y103.200 E112.85078
G0 F9000 X103.739 Y104.022
;TYPE:SKIN
G1 F1800 X120.150 Y120.433 E114.00867
G0 F9000 X121.848 Y122.697
G1 F1800 X103.739 Y104.588 E115.28635
G0 F9000 X103.739 Y105.153
G1 F1800 X122.260 Y123.674 E116.59311
G0 F9000 X122.260 Y124.240
G1 F1800 X103.739 Y105.719 E117.89987
G0 F9000 X103.739 Y106.285
G1 F1800 X122.260 Y124.805 E119.20659
G0 F9000 X122.260 Y125.371
G1 F1800 X103.739 Y106.850 E120.51334
G0 F9000 X103.739 Y107.416
G1 F1800 X122.260 Y125.937 E121.82010
G0 F9000 X122.260 Y126.502
G1 F1800 X103.739 Y107.982 E123.12682
G0 F9000 X103.739 Y108.547
G1 F1800 X122.260 Y127.068 E124.43358
G0 F9000 X121.885 Y127.259
G1 F1800 X103.739 Y109.113 E125.71388
G0 F9000 X103.739 Y109.679
G1 F1800 X121.319 Y127.259 E126.95424
G0 F9000 X120.754 Y127.259
G1 F1800 X103.739 Y110.245 E128.15471
G0 F9000 X103.739 Y110.810
G1 F1800 X120.188 Y127.259 E129.31527
G0 F9000 X119.622 Y127.259
G1 F1800 X103.739 Y111.376 E130.43590
G0 F9000 X103.739 Y111.942
G1 F1800 X119.056 Y127.259 E131.51660
G0 F9000 X118.491 Y127.259
G1 F1800 X103.739 Y112.507 E132.55743
G0 F9000 X103.739 Y113.073
G1 F1800 X117.925 Y127.259 E133.55833
G0 F9000 X117.359 Y127.259
G1 F1800 X103.739 Y113.639 E134.51930
G0 F9000 X103.739 Y114.204
G1 F1800 X116.794 Y127.259 E135.44040
G0 F9000 X116.228 Y127.259
G1 F1800 X103.739 Y114.770 E136.32156
G0 F9000 X103.739 Y115.336
G1 F1800 X115.662 Y127.259 E137.16280
G0 F9000 X115.097 Y127.259
G1 F1800 X103.739 Y115.901 E137.96416
G0 F9000 X103.739 Y116.467
G1 F1800 X114.531 Y127.259 E138.72560
G0 F9000 X113.965 Y127.259
G1 F1800 X103.739 Y117.033 E139.44710
G0 F9000 X103.739 Y117.598
G1 F1800 X113.400 Y127.259 E140.12873
G0 F9000 X112.834 Y127.259
G1 F1800 X103.739 Y118.164 E140.77043
G0 F9000 X103.739 Y118.730
G1 F1800 X112.268 Y127.259 E141.37220
G0 F9000 X111.703 Y127.259
G1 F1800 X103.739 Y119.295 E141.93411
G0 F9000 X103.739 Y119.861
G1 F1800 X111.137 Y127.259 E142.45607
G0 F9000 X110.571 Y127.259
G1 F1800 X103.739 Y120.427 E142.93811
G0 F9000 X103.739 Y120.993
G1 F1800 X110.006 Y127.259 E143.38024
G0 F9000 X109.440 Y127.259
G1 F1800 X103.739 Y121.558 E143.78248
G0 F9000 X103.739 Y122.124
G1 F1800 X108.874 Y127.259 E144.14478
G0 F9000 X108.308 Y127.259
G1 F1800 X103.739 Y122.690 E144.46715
G0 F9000 X103.739 Y123.255
G1 F1800 X107.743 Y127.259 E144.74965
G0 F9000 X107.177 Y127.259
G1 F1800 X103.739 Y123.821 E144.99222
G0 F9000 X103.739 Y124.387
G1 F1800 X106.611 Y127.259 E145.19486
G0 F9000 X106.046 Y127.259
G1 F1800 X103.739 Y124.952 E145.35763
G0 F9000 X103.739 Y125.518
G1 F1800 X105.480 Y127.259 E145.48047
G0 F9000 X104.914 Y127.259
G1 F1800 X103.739 Y126.084 E145.56337
G0 F9000 X103.739 Y126.649
G1 F1800 X104.349 Y127.259 E145.60641
G0 F9000 X118.453 Y118.170
G1 F1800 X104.023 Y103.740 E146.62452
G0 F9000 X104.588 Y103.740
G1 F1800 X116.755 Y115.906 E147.48293
G0 F9000 X115.057 Y113.643
G1 F1800 X105.154 Y103.740 E148.18164
G0 F9000 X105.720 Y103.740
G1 F1800 X113.359 Y111.379 E148.72062
G0 F9000 X111.662 Y109.116
G1 F1800 X106.285 Y103.740 E149.09996
G0 F9000 X106.851 Y103.740
G1 F1800 X109.964 Y106.853 E149.31960
G0 F9000 X108.266 Y104.589
G1 F1800 X107.417 Y103.740 E149.37950
G1 F2400 E145.37950
G0 F9000 X96.400 Y123.200
;TYPE:WALL-INNER
G1 F2400 E149.37950
G1 F1800 X96.400 Y127.400 E149.58904
G1 X77.600 Y127.400 E150.52697
G1 X77.600 Y103.600 E151.71436
G1 X81.700 Y103.600 E151.91891
G1 X96.400 Y123.200 E153.14122
G0 F9000 X96.800 Y123.067
;TYPE:WALL-OUTER
G1 F1800 X96.800 Y127.800 E153.37735
G1 X77.200 Y127.800 E154.35520
G1 X77.200 Y103.200 E155.58250
G1 X81.900 Y103.200 E155.81698
G1 X96.800 Y123.067 E157.05593
G0 F9000 X96.259 Y123.695
;TYPE:SKIN
G1 F1800 X77.740 Y105.175 E158.36259
G0 F9000 X77.740 Y104.610
G1 F1800 X95.911 Y122.782 E159.64468
G0 F9000 X96.259 Y124.261
G1 F1800 X77.740 Y105.741 E160.95133
G0 F9000 X77.740 Y106.307
G1 F1800 X96.259 Y124.826 E162.25795
G0 F9000 X96.259 Y125.392
G1 F1800 X77.740 Y106.872 E163.56460
G0 F9000 X77.740 Y107.438
G1 F1800 X96.259 Y125.958 E164.87125
G0 F9000 X96.259 Y126.524
G1 F1800 X77.740 Y108.004 E166.17790
G0 F9000 X77.740 Y108.569
G1 F1800 X96.259 Y127.089 E167.48455
G0 F9000 X95.863 Y127.258
G1 F1800 X77.740 Y109.135 E168.76323
G0 F9000 X77.740 Y109.701
G1 F1800 X95.297 Y127.258 E170.00197
G0 F9000 X94.731 Y127.258
G1 F1800 X77.740 Y110.266 E171.20081
G0 F9000 X77.740 Y110.832
G1 F1800 X94.166 Y127.258 E172.35975
G0 F9000 X93.600 Y127.258
G1 F1800 X77.740 Y111.398 E173.47876
G0 F9000 X77.740 Y111.963
G1 F1800 X93.034 Y127.258 E174.55787
G0 F9000 X92.469 Y127.258
G1 F1800 X77.740 Y112.529 E175.59708
G0 F9000 X77.740 Y113.095
G1 F1800 X91.903 Y127.258 E176.59636
G0 F9000 X91.337 Y127.258
G1 F1800 X77.740 Y113.661 E177.55570
G0 F9000 X77.740 Y114.226
G1 F1800 X90.772 Y127.258 E178.47518
G0 F9000 X90.206 Y127.258
G1 F1800 X77.740 Y114.792 E179.35472
G0 F9000 X77.740 Y115.358
G1 F1800 X89.640 Y127.258 E180.19433
G0 F9000 X89.074 Y127.258
G1 F1800 X77.740 Y115.923 E180.99404
G0 F9000 X77.740 Y116.489
G1 F1800 X88.509 Y127.258 E181.75385
G0 F9000 X87.943 Y127.258
G1 F1800 X77.740 Y117.055 E182.47373
G0 F9000 X77.740 Y117.620
G1 F1800 X87.377 Y127.258 E183.15371
G0 F9000 X86.812 Y127.258
G1 F1800 X77.740 Y118.186 E183.79379
G0 F9000 X77.740 Y118.752
G1 F1800 X86.246 Y127.258 E184.39393
G0 F9000 X85.680 Y127.258
G1 F1800 X77.740 Y119.317 E184.95418
G0 F9000 X77.740 Y119.883
G1 F1800 X85.115 Y127.258 E185.47452
G0 F9000 X84.549 Y127.258
G1 F1800 X77.740 Y120.449 E185.95493
G0 F9000 X77.740 Y121.014
G1 F1800 X83.983 Y127.258 E186.39545
G0 F9000 X83.418 Y127.258
G1 F1800 X77.740 Y121.580 E186.79606
G0 F9000 X77.740 Y122.146
G1 F1800 X82.852 Y127.258 E187.15674
G0 F9000 X82.286 Y127.258
G1 F1800 X77.740 Y122.712 E187.47748
G0 F9000 X77.740 Y123.277
G1 F1800 X81.721 Y127.258 E187.75836
G0 F9000 X81.155 Y127.258
G1 F1800 X77.740 Y123.843 E187.99931
G0 F9000 X77.740 Y124.409
G1 F1800 X80.589 Y127.258 E188.20032
G0 F9000 X80.023 Y127.258
G1 F1800 X77.740 Y124.974 E188.36144
G0 F9000 X77.740 Y125.540
G1 F1800 X79.458 Y127.258 E188.48265
G0 F9000 X78.892 Y127.258
G1 F1800 X77.740 Y126.106 E188.56393
G0 F9000 X77.740 Y126.671
G1 F1800 X78.326 Y127.258 E188.60531
G0 F9000 X92.517 Y118.256
G1 F1800 X78.000 Y103.739 E189.62956
G0 F9000 X77.740 Y104.044
G1 F1800 X94.214 Y120.519 E190.79193
G0 F9000 X90.820 Y115.993
G1 F1800 X78.566 Y103.739 E191.65652
G0 F9000 X79.132 Y103.739
G1 F1800 X89.123 Y113.731 E192.36147
G0 F9000 X87.425 Y111.467
G1 F1800 X79.698 Y103.739 E192.90669
G0 F9000 X80.263 Y103.739
G1 F1800 X85.728 Y109.204 E193.29227
G0 F9000 X84.031 Y106.942
G1 F1800 X80.829 Y103.739 E193.51823
G0 F9000 X81.395 Y103.739
G1 F1800 X82.334 Y104.679 E193.58451
;LAYER:1
M106 S63
G1 F2400 E189.58451
G0 F9000 X77.600 Y96.400 Z0.500
;TYPE:WALL-INNER
G1 F2400 E193.58451
G1 F2220 X77.600 Y72.600 E194.37610
G1 X81.700 Y72.600 E194.51247
G1 X96.400 Y92.200 E195.32734
G1 X96.400 Y96.400 E195.46704
G1 X77.600 Y96.400 E196.09233
G0 F9000 X77.200 Y96.800
;TYPE:WALL-OUTER
G1 F1980 X77.200 Y72.200 E196.91053
G1 X81.900 Y72.200 E197.06685
G1 X96.800 Y92.067 E197.89282
G1 X96.800 Y96.800 E198.05024
G1 X77.200 Y96.800 E198.70214
G0 F9000 X77.740 Y96.208
;TYPE:SKIN
G1 F1980 X90.019 Y83.928 E199.27973
G0 F9000 X90.262 Y84.251
G1 F1980 X78.254 Y96.259 E199.84455
G0 F9000 X78.819 Y96.259
G1 F1980 X90.504 Y84.574 E200.39417
G0 F9000 X90.747 Y84.898
G1 F1980 X79.385 Y96.259 E200.92858
G0 F9000 X79.951 Y96.259
G1 F1980 X90.989 Y85.221 E201.44778
G0 F9000 X91.232 Y85.544
G1 F1980 X80.516 Y96.259 E201.95180
G0 F9000 X81.082 Y96.259
G1 F1980 X91.474 Y85.868 E202.44058
G0 F9000 X91.716 Y86.191
G1 F1980 X81.648 Y96.259 E202.91415
G0 F9000 X82.213 Y96.259
G1 F1980 X91.959 Y86.514 E203.37255
G0 F9000 X92.201 Y86.837
G1 F1980 X82.779 Y96.259 E203.81573
G0 F9000 X83.345 Y96.259
G1 F1980 X92.444 Y87.160 E204.24372
G0 F9000 X92.686 Y87.483
G1 F1980 X83.910 Y96.259 E204.65652
