;Generated with Cura_SteamEngine 15.05
; Default start code
G28 ; Home extruder
G1 Z15 F100
M107 ; Turn off fan
G90 ; Absolute positioning
M82 ; Extruder in absolute mode
M190 S50
; Activate all used extruder
M104 T0 S210
G92 E0 ; Reset extruder position
; Wait for all used extruders to reach temperature
M109 T0 S210
;Layer count: 115
;LAYER:0
M107
G0 F9000 X71.800 Y86.800 Z0.300
;TYPE:SKIRT
G1 F1800 X128.200 Y86.800 E2.81381
G1 X128.200 Y113.200 E4.13091
G1 X71.800 Y113.200 E6.94472
G1 X71.800 Y86.800 E8.26182
G1 F2400 E4.26182
G0 F9000 X75.600 Y90.600
;TYPE:WALL-INNER
G1 F2400 E8.26182
G1 F1800 X124.400 Y90.600 E10.69646
G1 X124.400 Y109.400 E11.63440
G1 X75.600 Y109.400 E14.06904
G1 X75.600 Y90.600 E15.00697
G0 F9000 X80.318 Y97.401
G1 F1800 X80.232 Y97.448 E15.01186
G1 X79.675 Y97.941 E15.04897
G1 X79.251 Y98.557 E15.08628
G1 X78.985 Y99.256 E15.12359
G1 X78.896 Y100.000 E15.16098
G1 X78.985 Y100.743 E15.19831
G1 X79.251 Y101.442 E15.23562
G1 X79.675 Y102.057 E15.27289
G1 X80.191 Y102.516 E15.30735
G1 X80.899 Y102.902 E15.34758
G1 X81.625 Y103.081 E15.38488
G1 X82.374 Y103.081 E15.42225
G1 X83.100 Y102.902 E15.45955
G1 X83.763 Y102.554 E15.49691
G1 X84.324 Y102.057 E15.53430
G1 X84.690 Y101.525 E15.56652
G1 X84.747 Y101.444 E15.57146
G1 X85.014 Y100.743 E15.60888
G1 X85.104 Y100.000 E15.64622
G1 X85.014 Y99.256 E15.68361
G1 X84.748 Y98.557 E15.72093
G1 X84.324 Y97.941 E15.75823
G1 X83.763 Y97.445 E15.79559
G1 X83.100 Y97.097 E15.83295
G1 X82.374 Y96.918 E15.87026
G1 X81.625 Y96.918 E15.90762
G1 X80.899 Y97.097 E15.94493
G1 X80.318 Y97.401 E15.97764
G0 F9000 X82.373 Y96.920
G0 X114.896 Y100.000
G1 F1800 X114.985 Y100.743 E16.01498
G1 X115.251 Y101.442 E16.05229
G1 X115.675 Y102.057 E16.08956
G1 X116.191 Y102.516 E16.12401
G1 X116.899 Y102.902 E16.16424
G1 X117.625 Y103.081 E16.20155
G1 X118.374 Y103.081 E16.23891
G1 X119.100 Y102.902 E16.27622
G1 X119.763 Y102.554 E16.31358
G1 X120.324 Y102.057 E16.35097
G1 X120.690 Y101.525 E16.38318
G1 X120.747 Y101.444 E16.38813
G1 X121.014 Y100.743 E16.42555
G1 X121.104 Y100.000 E16.46289
G1 X121.014 Y99.256 E16.50028
G1 X120.748 Y98.557 E16.53759
G1 X120.324 Y97.941 E16.57490
G1 X119.763 Y97.445 E16.61226
G1 X119.100 Y97.097 E16.64962
G1 X118.374 Y96.918 E16.68692
G1 X117.625 Y96.918 E16.72429
G1 X116.899 Y97.097 E16.76159
G1 X116.318 Y97.401 E16.79431
G1 X116.232 Y97.448 E16.79920
G1 X115.675 Y97.941 E16.83631
G1 X115.251 Y98.557 E16.87362
G1 X114.985 Y99.256 E16.91093
G1 X114.896 Y100.000 E16.94831
G0 F9000 X115.299 Y100.000
;TYPE:WALL-OUTER
G1 F1800 X115.376 Y100.646 E16.98077
G1 X115.608 Y101.255 E17.01328
G1 X115.977 Y101.790 E17.04571
G1 X116.437 Y102.199 E17.07642
G1 X117.042 Y102.525 E17.11070
G1 X117.674 Y102.681 E17.14318
G1 X118.325 Y102.681 E17.17566
G1 X118.957 Y102.525 E17.20814
G1 X119.534 Y102.223 E17.24063
G1 X120.022 Y101.790 E17.27318
G1 X120.363 Y101.296 E17.30312
G1 X120.391 Y101.255 E17.30560
G1 X120.623 Y100.646 E17.33811
G1 X120.701 Y100.000 E17.37058
G1 X120.623 Y99.353 E17.40309
G1 X120.391 Y98.744 E17.43560
G1 X120.022 Y98.208 E17.46807
G1 X119.534 Y97.776 E17.50058
G1 X118.957 Y97.474 E17.53307
G1 X118.325 Y97.318 E17.56555
G1 X117.674 Y97.318 E17.59803
G1 X117.042 Y97.474 E17.63051
G1 X116.507 Y97.754 E17.66063
G1 X116.463 Y97.777 E17.66311
G1 X115.977 Y98.208 E17.69552
G1 X115.608 Y98.744 E17.72798
G1 X115.376 Y99.353 E17.76050
G1 X115.299 Y100.000 E17.79300
G0 F9000 X115.001 Y99.963
G0 X115.252 Y101.440
G0 X116.900 Y102.901
G0 X124.500 Y109.590
G0 X124.800 Y109.800
G1 F1800 X75.200 Y109.800 E20.26756
G1 X75.200 Y90.200 E21.24540
G1 X124.800 Y90.200 E23.71996
G1 X124.800 Y109.800 E24.69781
G0 F9000 X124.500 Y109.590
G0 X84.919 Y100.684
G0 X84.623 Y100.646
G1 F1800 X84.701 Y100.000 E24.73027
G1 X84.623 Y99.353 E24.76278
G1 X84.391 Y98.744 E24.79529
G1 X84.022 Y98.208 E24.82776
G1 X83.534 Y97.776 E24.86028
G1 X82.957 Y97.474 E24.89277
G1 X82.325 Y97.318 E24.92524
G1 X81.674 Y97.318 E24.95772
G1 X81.042 Y97.474 E24.99020
G1 X80.507 Y97.754 E25.02033
G1 X80.463 Y97.777 E25.02280
G1 X79.977 Y98.208 E25.05521
G1 X79.608 Y98.744 E25.08768
G1 X79.376 Y99.353 E25.12019
G1 X79.299 Y100.000 E25.15270
G1 X79.376 Y100.646 E25.18515
G1 X79.608 Y101.255 E25.21767
G1 X79.977 Y101.790 E25.25009
G1 X80.437 Y102.199 E25.28080
G1 X81.042 Y102.525 E25.31509
G1 X81.674 Y102.681 E25.34756
G1 X82.325 Y102.681 E25.38004
G1 X82.957 Y102.525 E25.41252
G1 X83.534 Y102.223 E25.44501
G1 X84.022 Y101.790 E25.47756
G1 X84.363 Y101.296 E25.50751
G1 X84.391 Y101.255 E25.50998
G1 X84.623 Y100.646 E25.54250
G0 F9000 X85.158 Y100.714
;TYPE:SKIN
G1 F1800 X93.702 Y109.259 E26.14536
G0 F9000 X93.137 Y109.259
G1 F1800 X85.014 Y101.136 E26.71848
G0 F9000 X84.851 Y101.539
G1 F1800 X92.571 Y109.259 E27.26317
G0 F9000 X92.005 Y109.259
G1 F1800 X84.620 Y101.873 E27.78425
G0 F9000 X84.376 Y102.196
G1 F1800 X91.440 Y109.259 E28.28262
G0 F9000 X90.874 Y109.259
G1 F1800 X84.077 Y102.461 E28.76222
G0 F9000 X83.762 Y102.712
G1 F1800 X90.308 Y109.259 E29.22411
G0 F9000 X89.743 Y109.259
G1 F1800 X83.391 Y102.907 E29.67228
G0 F9000 X82.991 Y103.072
G1 F1800 X89.177 Y109.259 E30.10877
G0 F9000 X88.611 Y109.259
G1 F1800 X82.537 Y103.185 E30.53732
G0 F9000 X82.007 Y103.220
G1 F1800 X88.046 Y109.259 E30.96341
G0 F9000 X87.480 Y109.259
G1 F1800 X81.387 Y103.166 E31.39330
G0 F9000 X80.497 Y102.842
G1 F1800 X86.914 Y109.259 E31.84606
G0 F9000 X86.349 Y109.259
G1 F1800 X75.739 Y98.649 E32.59465
G0 F9000 X75.739 Y98.084
G1 F1800 X79.104 Y101.448 E32.83203
G0 F9000 X78.828 Y100.607
G1 F1800 X75.739 Y97.518 E33.04998
G0 F9000 X75.739 Y96.952
G1 F1800 X78.759 Y99.972 E33.26306
G0 F9000 X78.819 Y99.466
G1 F1800 X75.739 Y96.387 E33.48033
G0 F9000 X75.739 Y95.821
G1 F1800 X78.928 Y99.010 E33.70533
G0 F9000 X79.084 Y98.601
G1 F1800 X75.739 Y95.255 E33.94138
G0 F9000 X75.739 Y94.690
G1 F1800 X79.294 Y98.245 E34.19220
G0 F9000 X79.525 Y97.910
G1 F1800 X75.739 Y94.124 E34.45932
G0 F9000 X75.739 Y93.558
G1 F1800 X79.811 Y97.630 E34.74662
G0 F9000 X80.111 Y97.365
G1 F1800 X75.739 Y92.993 E35.05509
G0 F9000 X75.739 Y92.427
G1 F1800 X80.473 Y97.161 E35.38910
G0 F9000 X80.844 Y96.966
G1 F1800 X75.739 Y91.861 E35.74929
G0 F9000 X75.739 Y91.295
G1 F1800 X81.297 Y96.853 E36.14143
G0 F9000 X81.786 Y96.777
G1 F1800 X75.748 Y90.739 E36.56745
G0 F9000 X76.314 Y90.739
G1 F1800 X82.352 Y96.777 E36.99346
G0 F9000 X83.089 Y96.949
G1 F1800 X76.880 Y90.739 E37.43157
G0 F9000 X77.445 Y90.739
G1 F1800 X95.965 Y109.259 E38.73826
G0 F9000 X95.400 Y109.259
G1 F1800 X85.021 Y98.880 E39.47055
G0 F9000 X85.198 Y99.623
G1 F1800 X94.834 Y109.259 E40.15043
G0 F9000 X94.268 Y109.259
G1 F1800 X85.218 Y100.209 E40.78895
G0 F9000 X85.217 Y109.259
G1 F1800 X75.739 Y99.781 E41.45768
G0 F9000 X75.739 Y99.215
G1 F1800 X85.783 Y109.259 E42.16634
G0 F9000 X84.651 Y109.259
G1 F1800 X75.739 Y100.346 E42.79516
G0 F9000 X75.739 Y100.912
G1 F1800 X84.086 Y109.259 E43.38409
G0 F9000 X83.520 Y109.259
G1 F1800 X75.739 Y101.478 E43.93308
G0 F9000 X75.739 Y102.043
G1 F1800 X82.954 Y109.259 E44.44217
G0 F9000 X82.389 Y109.259
G1 F1800 X75.739 Y102.609 E44.91136
G0 F9000 X75.739 Y103.175
G1 F1800 X81.823 Y109.259 E45.34062
G0 F9000 X81.257 Y109.259
G1 F1800 X75.739 Y103.741 E45.72995
G0 F9000 X75.739 Y104.306
G1 F1800 X80.692 Y109.259 E46.07941
G0 F9000 X80.126 Y109.259
G1 F1800 X75.739 Y104.872 E46.38894
G0 F9000 X75.739 Y105.438
G1 F1800 X79.560 Y109.259 E46.65853
G0 F9000 X78.995 Y109.259
G1 F1800 X75.739 Y106.003 E46.88826
G0 F9000 X75.739 Y106.569
G1 F1800 X78.429 Y109.259 E47.07805
G0 F9000 X77.863 Y109.259
G1 F1800 X75.739 Y107.135 E47.22791
G0 F9000 X75.739 Y107.700
G1 F1800 X77.298 Y109.259 E47.33791
G0 F9000 X76.732 Y109.259
G1 F1800 X75.739 Y108.266 E47.40797
G0 F9000 X75.739 Y108.832
G1 F1800 X76.166 Y109.259 E47.43809
G0 F9000 X78.011 Y90.739
G1 F1800 X96.531 Y109.259 E48.74478
G0 F9000 X97.097 Y109.259
G1 F1800 X78.577 Y90.739 E50.05147
G0 F9000 X79.142 Y90.739
G1 F1800 X97.662 Y109.259 E51.35815
G0 F9000 X98.228 Y109.259
G1 F1800 X79.708 Y90.739 E52.66484
G0 F9000 X80.274 Y90.739
G1 F1800 X98.794 Y109.259 E53.97152
G0 F9000 X99.359 Y109.259
G1 F1800 X80.839 Y90.739 E55.27821
G0 F9000 X81.405 Y90.739
G1 F1800 X99.925 Y109.259 E56.58490
G0 F9000 X100.491 Y109.259
G1 F1800 X81.971 Y90.739 E57.89158
G0 F9000 X82.537 Y90.739
G1 F1800 X101.056 Y109.259 E59.19823
G0 F9000 X101.622 Y109.259
G1 F1800 X83.102 Y90.739 E60.50492
G0 F9000 X83.668 Y90.739
G1 F1800 X102.188 Y109.259 E61.81161
G0 F9000 X102.753 Y109.259
G1 F1800 X84.234 Y90.739 E63.11826
G0 F9000 X84.799 Y90.739
G1 F1800 X103.319 Y109.259 E64.42494
G0 F9000 X103.885 Y109.259
G1 F1800 X85.365 Y90.739 E65.73163
G0 F9000 X85.931 Y90.739
G1 F1800 X104.450 Y109.259 E67.03828
G0 F9000 X105.016 Y109.259
G1 F1800 X86.496 Y90.739 E68.34496
G0 F9000 X87.062 Y90.739
G1 F1800 X105.582 Y109.259 E69.65165
G0 F9000 X106.148 Y109.259
G1 F1800 X87.628 Y90.739 E70.95834
G0 F9000 X88.193 Y90.739
G1 F1800 X106.713 Y109.259 E72.26502
G0 F9000 X107.279 Y109.259
G1 F1800 X88.759 Y90.739 E73.57171
G0 F9000 X89.325 Y90.739
G1 F1800 X107.845 Y109.259 E74.87839
G0 F9000 X108.410 Y109.259
G1 F1800 X89.890 Y90.739 E76.18508
G0 F9000 X90.456 Y90.739
G1 F1800 X108.976 Y109.259 E77.49177
G0 F9000 X109.542 Y109.259
G1 F1800 X91.022 Y90.739 E78.79845
G0 F9000 X91.588 Y90.739
G1 F1800 X110.107 Y109.259 E80.10510
G0 F9000 X110.673 Y109.259
G1 F1800 X92.153 Y90.739 E81.41179
G0 F9000 X92.719 Y90.739
G1 F1800 X111.239 Y109.259 E82.71848
G0 F9000 X111.804 Y109.259
G1 F1800 X93.285 Y90.739 E84.02513
G0 F9000 X93.850 Y90.739
G1 F1800 X112.370 Y109.259 E85.33181
G0 F9000 X112.936 Y109.259
G1 F1800 X94.416 Y90.739 E86.63850
G0 F9000 X94.982 Y90.739
G1 F1800 X113.501 Y109.259 E87.94515
G0 F9000 X114.067 Y109.259
G1 F1800 X95.547 Y90.739 E89.25184
G0 F9000 X96.113 Y90.739
G1 F1800 X114.633 Y109.259 E90.55852
G0 F9000 X115.199 Y109.259
G1 F1800 X96.679 Y90.739 E91.86521
G0 F9000 X97.244 Y90.739
G1 F1800 X115.764 Y109.259 E93.17189
G0 F9000 X116.330 Y109.259
G1 F1800 X97.810 Y90.739 E94.47858
G0 F9000 X98.376 Y90.739
G1 F1800 X116.896 Y109.259 E95.78527
G0 F9000 X117.461 Y109.259
G1 F1800 X98.941 Y90.739 E97.09195
G0 F9000 X99.507 Y90.739
G1 F1800 X118.027 Y109.259 E98.39864
G0 F9000 X118.593 Y109.259
G1 F1800 X100.073 Y90.739 E99.70532
G0 F9000 X100.638 Y90.739
G1 F1800 X119.158 Y109.259 E101.01201
G0 F9000 X119.724 Y109.259
G1 F1800 X101.204 Y90.739 E102.31870
G0 F9000 X101.770 Y90.739
G1 F1800 X120.290 Y109.259 E103.62538
G0 F9000 X120.855 Y109.259
G1 F1800 X102.336 Y90.739 E104.93203
G0 F9000 X102.901 Y90.739
G1 F1800 X121.421 Y109.259 E106.23872
G0 F9000 X121.987 Y109.259
G1 F1800 X103.467 Y90.739 E107.54540
G0 F9000 X104.033 Y90.739
G1 F1800 X122.552 Y109.259 E108.85206
G0 F9000 X123.118 Y109.259
G1 F1800 X116.908 Y103.049 E109.29020
G0 F9000 X117.646 Y103.221
G1 F1800 X123.684 Y109.259 E109.71622
G0 F9000 X124.249 Y109.259
G1 F1800 X118.211 Y103.221 E110.14223
G0 F9000 X118.701 Y103.144
G1 F1800 X124.259 Y108.702 E110.53438
G0 F9000 X124.259 Y108.137
G1 F1800 X119.153 Y103.031 E110.89463
G0 F9000 X119.525 Y102.837
G1 F1800 X124.259 Y107.571 E111.22864
G0 F9000 X124.259 Y107.005
G1 F1800 X119.885 Y102.632 E111.53722
G0 F9000 X117.626 Y103.079
G0 X115.677 Y102.056
G0 X114.976 Y101.117
G1 F1800 X104.598 Y90.739 E112.26944
G0 F9000 X105.164 Y90.739
G1 F1800 X114.800 Y100.375 E112.94931
G0 F9000 X114.780 Y99.789
G1 F1800 X105.730 Y90.739 E113.58784
G0 F9000 X106.295 Y90.739
G1 F1800 X114.839 Y99.283 E114.19066
G0 F9000 X114.984 Y98.862
G1 F1800 X106.861 Y90.739 E114.76379
G0 F9000 X107.427 Y90.739
G1 F1800 X115.148 Y98.460 E115.30854
G0 F9000 X115.378 Y98.125
G1 F1800 X107.992 Y90.739 E115.82967
G0 F9000 X108.558 Y90.739
G1 F1800 X115.620 Y97.801 E116.32793
G0 F9000 X115.920 Y97.535
G1 F1800 X109.124 Y90.739 E116.80742
G0 F9000 X109.689 Y90.739
G1 F1800 X116.237 Y97.286 E117.26939
G0 F9000 X116.607 Y97.091
G1 F1800 X110.255 Y90.739 E117.71755
G0 F9000 X110.821 Y90.739
G1 F1800 X117.007 Y96.925 E118.15401
G0 F9000 X117.461 Y96.813
G1 F1800 X111.386 Y90.739 E118.58260
G0 F9000 X111.952 Y90.739
G1 F1800 X117.991 Y96.778 E119.00868
G0 F9000 X118.610 Y96.831
G1 F1800 X112.518 Y90.739 E119.43851
G0 F9000 X113.084 Y90.739
G1 F1800 X119.486 Y97.142 E119.89024
G0 F9000 X124.259 Y97.389
G1 F1800 X117.609 Y90.739 E120.35943
G0 F9000 X117.043 Y90.739
G1 F1800 X124.259 Y97.954 E120.86852
G0 F9000 X124.259 Y98.520
G1 F1800 X116.478 Y90.739 E121.41751
G0 F9000 X115.912 Y90.739
G1 F1800 X124.259 Y99.086 E122.00644
G0 F9000 X124.259 Y99.651
G1 F1800 X115.346 Y90.739 E122.63526
G0 F9000 X114.781 Y90.739
G1 F1800 X124.259 Y100.217 E123.30399
G0 F9000 X124.259 Y100.783
G1 F1800 X114.215 Y90.739 E124.01265
G0 F9000 X113.649 Y90.739
G1 F1800 X124.259 Y101.348 E124.76120
G0 F9000 X124.259 Y101.914
G1 F1800 X120.894 Y98.549 E124.99862
G0 F9000 X121.170 Y99.391
G1 F1800 X124.259 Y102.480 E125.21657
G0 F9000 X124.259 Y103.045
G1 F1800 X121.239 Y100.026 E125.42961
G0 F9000 X121.179 Y100.532
G1 F1800 X124.259 Y103.611 E125.64689
G0 F9000 X124.259 Y104.177
G1 F1800 X121.070 Y100.988 E125.87189
G0 F9000 X120.913 Y101.397
G1 F1800 X124.259 Y104.743 E126.10797
G0 F9000 X124.259 Y105.308
G1 F1800 X120.703 Y101.752 E126.35886
G0 F9000 X120.471 Y102.087
G1 F1800 X124.259 Y105.874 E126.62609
G0 F9000 X124.259 Y106.440
G1 F1800 X120.185 Y102.366 E126.91353
G0 F9000 X124.259 Y96.823
G1 F1800 X118.175 Y90.739 E127.34279
G0 F9000 X118.740 Y90.739
G1 F1800 X124.259 Y96.257 E127.73215
G0 F9000 X124.259 Y95.692
G1 F1800 X119.306 Y90.739 E128.08161
G0 F9000 X119.872 Y90.739
G1 F1800 X124.259 Y95.126 E128.39114
G0 F9000 X124.259 Y94.560
G1 F1800 X120.437 Y90.739 E128.66077
G0 F9000 X121.003 Y90.739
G1 F1800 X124.259 Y93.994 E128.89046
G0 F9000 X124.259 Y93.429
G1 F1800 X121.569 Y90.739 E129.08025
G0 F9000 X122.135 Y90.739
G1 F1800 X124.259 Y92.863 E129.23011
G0 F9000 X124.259 Y92.297
G1 F1800 X122.700 Y90.739 E129.34007
G0 F9000 X123.266 Y90.739
G1 F1800 X124.259 Y91.732 E129.41014
G0 F9000 X124.259 Y91.166
G1 F1800 X123.832 Y90.739 E129.44026
;LAYER:1
M106 S63
G0 F9000 X124.400 Y90.600 Z0.500
;TYPE:WALL-INNER
G1 F2220 X124.400 Y109.400 E130.06555
G1 X75.600 Y109.400 E131.68865
G1 X75.600 Y90.600 E132.31394
G1 X124.400 Y90.600 E133.93703
G0 F9000 X119.763 Y97.445
G1 F2220 X119.100 Y97.097 E133.96194
G1 X118.374 Y96.918 E133.98681
G1 X117.625 Y96.918 E134.01172
G1 X116.899 Y97.097 E134.03659
G1 X116.341 Y97.389 E134.05754
G1 X116.234 Y97.446 E134.06157
G1 X115.675 Y97.941 E134.08640
G1 X115.251 Y98.557 E134.11127
G1 X114.985 Y99.256 E134.13615
G1 X114.896 Y100.000 E134.16107
G1 X114.985 Y100.743 E134.18596
G1 X115.251 Y101.442 E134.21084
G1 X115.675 Y102.057 E134.23568
G1 X116.194 Y102.519 E134.25879
G1 X116.894 Y102.901 E134.28532
G1 X117.625 Y103.081 E134.31035
G1 X118.374 Y103.081 E134.33527
G1 X119.100 Y102.902 E134.36014
G1 X119.763 Y102.554 E134.38504
G1 X120.324 Y102.057 E134.40997
G1 X120.676 Y101.545 E134.43063
G1 X120.747 Y101.444 E134.43474
G1 X121.014 Y100.743 E134.45969
G1 X121.104 Y100.000 E134.48458
G1 X121.014 Y99.256 E134.50951
G1 X120.748 Y98.557 E134.53438
G1 X120.324 Y97.941 E134.55926
G1 X119.763 Y97.445 E134.58416
G0 F9000 X117.626 Y96.920
G0 X85.104 Y100.000
G1 F2220 X85.014 Y99.256 E134.60909
G1 X84.748 Y98.557 E134.63396
G1 X84.324 Y97.941 E134.65884
G1 X83.763 Y97.445 E134.68374
G1 X83.100 Y97.097 E134.70865
G1 X82.374 Y96.918 E134.73352
G1 X81.625 Y96.918 E134.75843
G1 X80.899 Y97.097 E134.78330
G1 X80.341 Y97.389 E134.80425
G1 X80.234 Y97.446 E134.80828
G1 X79.675 Y97.941 E134.83311
G1 X79.251 Y98.557 E134.85798
G1 X78.985 Y99.256 E134.88286
G1 X78.896 Y100.000 E134.90778
G1 X78.985 Y100.743 E134.93267
G1 X79.251 Y101.442 E134.95755
G1 X79.675 Y102.057 E134.98239
G1 X80.194 Y102.519 E135.00550
G1 X80.894 Y102.901 E135.03202
G1 X81.625 Y103.081 E135.05706
G1 X82.374 Y103.081 E135.08198
G1 X83.100 Y102.902 E135.10685
G1 X83.763 Y102.554 E135.13175
G1 X84.324 Y102.057 E135.15668
G1 X84.676 Y101.545 E135.17734
G1 X84.747 Y101.444 E135.18145
G1 X85.014 Y100.743 E135.20640
G1 X85.104 Y100.000 E135.23129
G0 F9000 X84.701 Y100.000
